%
(Header)
(Generated by gcodetools from Inkscape.)
(Using default header. To add your own header create file "header" in the output dir.)
M3
(Header end.)
G21 (All units in mm)

(Start cutting path id: path840)
(Change tool to Cylindrical cutter)

G00 Z10.000000
G00 X57.026734 Y47.195730

G01 Z-3.100000 F400.0(Penetrate)
G02 X56.417770 Y44.134263 Z-3.100000 I-8.000000 J0.000000 F400.000000
G02 X54.683588 Y41.538876 Z-3.100000 I-7.391036 J3.061467
G02 X52.088201 Y39.804694 Z-3.100000 I-5.656854 J5.656854
G02 X49.026734 Y39.195730 Z-3.100000 I-3.061467 J7.391036
G02 X45.965267 Y39.804694 Z-3.100000 I-0.000000 J8.000000
G02 X43.369880 Y41.538876 Z-3.100000 I3.061467 J7.391036
G02 X41.635698 Y44.134263 Z-3.100000 I5.656854 J5.656854
G02 X41.026734 Y47.195730 Z-3.100000 I7.391036 J3.061467
G02 X41.635698 Y50.257197 Z-3.100000 I8.000000 J-0.000000
G02 X43.369880 Y52.852584 Z-3.100000 I7.391036 J-3.061467
G02 X45.965267 Y54.586766 Z-3.100000 I5.656854 J-5.656854
G02 X49.026734 Y55.195730 Z-3.100000 I3.061467 J-7.391036
G02 X52.088201 Y54.586766 Z-3.100000 I-0.000000 J-8.000000
G02 X54.683588 Y52.852584 Z-3.100000 I-3.061467 J-7.391036
G02 X56.417770 Y50.257197 Z-3.100000 I-5.656854 J-5.656854
G02 X57.026734 Y47.195730 Z-3.100000 I-7.391036 J-3.061467
G01 X57.026734 Y47.195730 Z-3.100000
G00 Z10.000000

(End cutting path id: path840)


(Start cutting path id: path840)
(Change tool to Cylindrical cutter)

G00 Z10.000000
G00 X57.026734 Y47.195730

G01 Z-6.000000 F400.0(Penetrate)
G02 X56.417770 Y44.134263 Z-6.000000 I-8.000000 J0.000000 F400.000000
G02 X54.683588 Y41.538876 Z-6.000000 I-7.391036 J3.061467
G02 X52.088201 Y39.804694 Z-6.000000 I-5.656854 J5.656854
G02 X49.026734 Y39.195730 Z-6.000000 I-3.061467 J7.391036
G02 X45.965267 Y39.804694 Z-6.000000 I-0.000000 J8.000000
G02 X43.369880 Y41.538876 Z-6.000000 I3.061467 J7.391036
G02 X41.635698 Y44.134263 Z-6.000000 I5.656854 J5.656854
G02 X41.026734 Y47.195730 Z-6.000000 I7.391036 J3.061467
G02 X41.635698 Y50.257197 Z-6.000000 I8.000000 J-0.000000
G02 X43.369880 Y52.852584 Z-6.000000 I7.391036 J-3.061467
G02 X45.965267 Y54.586766 Z-6.000000 I5.656854 J-5.656854
G02 X49.026734 Y55.195730 Z-6.000000 I3.061467 J-7.391036
G02 X52.088201 Y54.586766 Z-6.000000 I-0.000000 J-8.000000
G02 X54.683588 Y52.852584 Z-6.000000 I-3.061467 J-7.391036
G02 X56.417770 Y50.257197 Z-6.000000 I-5.656854 J-5.656854
G02 X57.026734 Y47.195730 Z-6.000000 I-7.391036 J-3.061467
G01 X57.026734 Y47.195730 Z-6.000000
G00 Z10.000000

(End cutting path id: path840)


(Start cutting path id: path840)
(Change tool to Cylindrical cutter)

G00 Z10.000000
G00 X57.026734 Y47.195730

G01 Z-6.000000 F400.0(Penetrate)
G02 X56.417770 Y44.134263 Z-6.000000 I-8.000000 J0.000000 F400.000000
G02 X54.683588 Y41.538876 Z-6.000000 I-7.391036 J3.061467
G02 X52.088201 Y39.804694 Z-6.000000 I-5.656854 J5.656854
G02 X49.026734 Y39.195730 Z-6.000000 I-3.061467 J7.391036
G02 X45.965267 Y39.804694 Z-6.000000 I-0.000000 J8.000000
G02 X43.369880 Y41.538876 Z-6.000000 I3.061467 J7.391036
G02 X41.635698 Y44.134263 Z-6.000000 I5.656854 J5.656854
G02 X41.026734 Y47.195730 Z-6.000000 I7.391036 J3.061467
G02 X41.635698 Y50.257197 Z-6.000000 I8.000000 J-0.000000
G02 X43.369880 Y52.852584 Z-6.000000 I7.391036 J-3.061467
G02 X45.965267 Y54.586766 Z-6.000000 I5.656854 J-5.656854
G02 X49.026734 Y55.195730 Z-6.000000 I3.061467 J-7.391036
G02 X52.088201 Y54.586766 Z-6.000000 I-0.000000 J-8.000000
G02 X54.683588 Y52.852584 Z-6.000000 I-3.061467 J-7.391036
G02 X56.417770 Y50.257197 Z-6.000000 I-5.656854 J-5.656854
G02 X57.026734 Y47.195730 Z-6.000000 I-7.391036 J-3.061467
G01 X57.026734 Y47.195730 Z-6.000000
G00 Z10.000000

(End cutting path id: path840)


(Start cutting path id: circle50325)
(Change tool to Cylindrical cutter)

G00 Z10.000000
G00 X71.145226 Y48.711620

G01 Z-3.100000 F400.0(Penetrate)
G02 X71.110972 Y48.539412 Z-3.100000 I-0.450000 J-0.000000 F400.000000
G02 X71.013424 Y48.393422 Z-3.100000 I-0.415746 J0.172208
G02 X70.867434 Y48.295874 Z-3.100000 I-0.318198 J0.318198
G02 X70.695226 Y48.261620 Z-3.100000 I-0.172208 J0.415746
G02 X70.523018 Y48.295874 Z-3.100000 I-0.000000 J0.450000
G02 X70.377028 Y48.393422 Z-3.100000 I0.172208 J0.415746
G02 X70.279480 Y48.539412 Z-3.100000 I0.318198 J0.318198
G02 X70.245226 Y48.711620 Z-3.100000 I0.415746 J0.172208
G02 X70.279480 Y48.883828 Z-3.100000 I0.450000 J0.000000
G02 X70.377028 Y49.029818 Z-3.100000 I0.415746 J-0.172208
G02 X70.523018 Y49.127366 Z-3.100000 I0.318198 J-0.318198
G02 X70.695226 Y49.161620 Z-3.100000 I0.172208 J-0.415746
G02 X70.867434 Y49.127366 Z-3.100000 I0.000000 J-0.450000
G02 X71.013424 Y49.029818 Z-3.100000 I-0.172208 J-0.415746
G02 X71.110972 Y48.883828 Z-3.100000 I-0.318198 J-0.318198
G02 X71.145226 Y48.711620 Z-3.100000 I-0.415746 J-0.172208
G01 X71.145226 Y48.711620 Z-3.100000
G00 Z10.000000

(End cutting path id: circle50325)


(Start cutting path id: circle50325)
(Change tool to Cylindrical cutter)

G00 Z10.000000
G00 X71.145226 Y48.711620

G01 Z-6.000000 F400.0(Penetrate)
G02 X71.110972 Y48.539412 Z-6.000000 I-0.450000 J-0.000000 F400.000000
G02 X71.013424 Y48.393422 Z-6.000000 I-0.415746 J0.172208
G02 X70.867434 Y48.295874 Z-6.000000 I-0.318198 J0.318198
G02 X70.695226 Y48.261620 Z-6.000000 I-0.172208 J0.415746
G02 X70.523018 Y48.295874 Z-6.000000 I-0.000000 J0.450000
G02 X70.377028 Y48.393422 Z-6.000000 I0.172208 J0.415746
G02 X70.279480 Y48.539412 Z-6.000000 I0.318198 J0.318198
G02 X70.245226 Y48.711620 Z-6.000000 I0.415746 J0.172208
G02 X70.279480 Y48.883828 Z-6.000000 I0.450000 J0.000000
G02 X70.377028 Y49.029818 Z-6.000000 I0.415746 J-0.172208
G02 X70.523018 Y49.127366 Z-6.000000 I0.318198 J-0.318198
G02 X70.695226 Y49.161620 Z-6.000000 I0.172208 J-0.415746
G02 X70.867434 Y49.127366 Z-6.000000 I0.000000 J-0.450000
G02 X71.013424 Y49.029818 Z-6.000000 I-0.172208 J-0.415746
G02 X71.110972 Y48.883828 Z-6.000000 I-0.318198 J-0.318198
G02 X71.145226 Y48.711620 Z-6.000000 I-0.415746 J-0.172208
G01 X71.145226 Y48.711620 Z-6.000000
G00 Z10.000000

(End cutting path id: circle50325)


(Start cutting path id: circle50325)
(Change tool to Cylindrical cutter)

G00 Z10.000000
G00 X71.145226 Y48.711620

G01 Z-6.000000 F400.0(Penetrate)
G02 X71.110972 Y48.539412 Z-6.000000 I-0.450000 J-0.000000 F400.000000
G02 X71.013424 Y48.393422 Z-6.000000 I-0.415746 J0.172208
G02 X70.867434 Y48.295874 Z-6.000000 I-0.318198 J0.318198
G02 X70.695226 Y48.261620 Z-6.000000 I-0.172208 J0.415746
G02 X70.523018 Y48.295874 Z-6.000000 I-0.000000 J0.450000
G02 X70.377028 Y48.393422 Z-6.000000 I0.172208 J0.415746
G02 X70.279480 Y48.539412 Z-6.000000 I0.318198 J0.318198
G02 X70.245226 Y48.711620 Z-6.000000 I0.415746 J0.172208
G02 X70.279480 Y48.883828 Z-6.000000 I0.450000 J0.000000
G02 X70.377028 Y49.029818 Z-6.000000 I0.415746 J-0.172208
G02 X70.523018 Y49.127366 Z-6.000000 I0.318198 J-0.318198
G02 X70.695226 Y49.161620 Z-6.000000 I0.172208 J-0.415746
G02 X70.867434 Y49.127366 Z-6.000000 I0.000000 J-0.450000
G02 X71.013424 Y49.029818 Z-6.000000 I-0.172208 J-0.415746
G02 X71.110972 Y48.883828 Z-6.000000 I-0.318198 J-0.318198
G02 X71.145226 Y48.711620 Z-6.000000 I-0.415746 J-0.172208
G01 X71.145226 Y48.711620 Z-6.000000
G00 Z10.000000

(End cutting path id: circle50325)


(Start cutting path id: rect50317)
(Change tool to Cylindrical cutter)

G00 Z10.000000
G00 X76.303555 Y52.603124

G01 Z-3.100000 F400.0(Penetrate)
G01 X115.086370 Y52.603124 Z-3.100000 F400.000000
G01 X115.086370 Y34.820310 Z-3.100000
G01 X76.303555 Y34.820310 Z-3.100000
G01 X76.303555 Y52.603124 Z-3.100000
G00 Z10.000000

(End cutting path id: rect50317)


(Start cutting path id: rect50317)
(Change tool to Cylindrical cutter)

G00 Z10.000000
G00 X76.303555 Y52.603124

G01 Z-6.000000 F400.0(Penetrate)
G01 X115.086370 Y52.603124 Z-6.000000 F400.000000
G01 X115.086370 Y34.820310 Z-6.000000
G01 X76.303555 Y34.820310 Z-6.000000
G01 X76.303555 Y52.603124 Z-6.000000
G00 Z10.000000

(End cutting path id: rect50317)


(Start cutting path id: rect50317)
(Change tool to Cylindrical cutter)

G00 Z10.000000
G00 X76.303555 Y52.603124

G01 Z-6.000000 F400.0(Penetrate)
G01 X115.086370 Y52.603124 Z-6.000000 F400.000000
G01 X115.086370 Y34.820310 Z-6.000000
G01 X76.303555 Y34.820310 Z-6.000000
G01 X76.303555 Y52.603124 Z-6.000000
G00 Z10.000000

(End cutting path id: rect50317)


(Start cutting path id: circle50323)
(Change tool to Cylindrical cutter)

G00 Z10.000000
G00 X71.145226 Y38.711620

G01 Z-3.100000 F400.0(Penetrate)
G02 X71.110972 Y38.539412 Z-3.100000 I-0.450000 J-0.000000 F400.000000
G02 X71.013424 Y38.393422 Z-3.100000 I-0.415746 J0.172208
G02 X70.867434 Y38.295874 Z-3.100000 I-0.318198 J0.318198
G02 X70.695226 Y38.261620 Z-3.100000 I-0.172208 J0.415746
G02 X70.523018 Y38.295874 Z-3.100000 I-0.000000 J0.450000
G02 X70.377028 Y38.393422 Z-3.100000 I0.172208 J0.415746
G02 X70.279480 Y38.539412 Z-3.100000 I0.318198 J0.318198
G02 X70.245226 Y38.711620 Z-3.100000 I0.415746 J0.172208
G02 X70.279480 Y38.883828 Z-3.100000 I0.450000 J0.000000
G02 X70.377028 Y39.029818 Z-3.100000 I0.415746 J-0.172208
G02 X70.523018 Y39.127366 Z-3.100000 I0.318198 J-0.318198
G02 X70.695226 Y39.161620 Z-3.100000 I0.172208 J-0.415746
G02 X70.867434 Y39.127366 Z-3.100000 I0.000000 J-0.450000
G02 X71.013424 Y39.029818 Z-3.100000 I-0.172208 J-0.415746
G02 X71.110972 Y38.883828 Z-3.100000 I-0.318198 J-0.318198
G02 X71.145226 Y38.711620 Z-3.100000 I-0.415746 J-0.172208
G01 X71.145226 Y38.711620 Z-3.100000
G00 Z10.000000

(End cutting path id: circle50323)


(Start cutting path id: circle50323)
(Change tool to Cylindrical cutter)

G00 Z10.000000
G00 X71.145226 Y38.711620

G01 Z-6.000000 F400.0(Penetrate)
G02 X71.110972 Y38.539412 Z-6.000000 I-0.450000 J-0.000000 F400.000000
G02 X71.013424 Y38.393422 Z-6.000000 I-0.415746 J0.172208
G02 X70.867434 Y38.295874 Z-6.000000 I-0.318198 J0.318198
G02 X70.695226 Y38.261620 Z-6.000000 I-0.172208 J0.415746
G02 X70.523018 Y38.295874 Z-6.000000 I-0.000000 J0.450000
G02 X70.377028 Y38.393422 Z-6.000000 I0.172208 J0.415746
G02 X70.279480 Y38.539412 Z-6.000000 I0.318198 J0.318198
G02 X70.245226 Y38.711620 Z-6.000000 I0.415746 J0.172208
G02 X70.279480 Y38.883828 Z-6.000000 I0.450000 J0.000000
G02 X70.377028 Y39.029818 Z-6.000000 I0.415746 J-0.172208
G02 X70.523018 Y39.127366 Z-6.000000 I0.318198 J-0.318198
G02 X70.695226 Y39.161620 Z-6.000000 I0.172208 J-0.415746
G02 X70.867434 Y39.127366 Z-6.000000 I0.000000 J-0.450000
G02 X71.013424 Y39.029818 Z-6.000000 I-0.172208 J-0.415746
G02 X71.110972 Y38.883828 Z-6.000000 I-0.318198 J-0.318198
G02 X71.145226 Y38.711620 Z-6.000000 I-0.415746 J-0.172208
G01 X71.145226 Y38.711620 Z-6.000000
G00 Z10.000000

(End cutting path id: circle50323)


(Start cutting path id: circle50323)
(Change tool to Cylindrical cutter)

G00 Z10.000000
G00 X71.145226 Y38.711620

G01 Z-6.000000 F400.0(Penetrate)
G02 X71.110972 Y38.539412 Z-6.000000 I-0.450000 J-0.000000 F400.000000
G02 X71.013424 Y38.393422 Z-6.000000 I-0.415746 J0.172208
G02 X70.867434 Y38.295874 Z-6.000000 I-0.318198 J0.318198
G02 X70.695226 Y38.261620 Z-6.000000 I-0.172208 J0.415746
G02 X70.523018 Y38.295874 Z-6.000000 I-0.000000 J0.450000
G02 X70.377028 Y38.393422 Z-6.000000 I0.172208 J0.415746
G02 X70.279480 Y38.539412 Z-6.000000 I0.318198 J0.318198
G02 X70.245226 Y38.711620 Z-6.000000 I0.415746 J0.172208
G02 X70.279480 Y38.883828 Z-6.000000 I0.450000 J0.000000
G02 X70.377028 Y39.029818 Z-6.000000 I0.415746 J-0.172208
G02 X70.523018 Y39.127366 Z-6.000000 I0.318198 J-0.318198
G02 X70.695226 Y39.161620 Z-6.000000 I0.172208 J-0.415746
G02 X70.867434 Y39.127366 Z-6.000000 I0.000000 J-0.450000
G02 X71.013424 Y39.029818 Z-6.000000 I-0.172208 J-0.415746
G02 X71.110972 Y38.883828 Z-6.000000 I-0.318198 J-0.318198
G02 X71.145226 Y38.711620 Z-6.000000 I-0.415746 J-0.172208
G01 X71.145226 Y38.711620 Z-6.000000
G00 Z10.000000

(End cutting path id: circle50323)


(Start cutting path id: rect894)
(Change tool to Cylindrical cutter)

G00 Z10.000000
G00 X66.610349 Y11.190580

G01 Z-3.100000 F400.0(Penetrate)
G01 X66.610349 Y6.149670 Z-3.100000 F400.000000
G01 X52.615801 Y6.149670 Z-3.100000
G01 X52.615801 Y11.190580 Z-3.100000
G01 X66.610349 Y11.190580 Z-3.100000
G00 Z10.000000

(End cutting path id: rect894)


(Start cutting path id: rect894)
(Change tool to Cylindrical cutter)

G00 Z10.000000
G00 X66.610349 Y11.190580

G01 Z-6.000000 F400.0(Penetrate)
G01 X66.610349 Y6.149670 Z-6.000000 F400.000000
G01 X52.615801 Y6.149670 Z-6.000000
G01 X52.615801 Y11.190580 Z-6.000000
G01 X66.610349 Y11.190580 Z-6.000000
G00 Z10.000000

(End cutting path id: rect894)


(Start cutting path id: rect894)
(Change tool to Cylindrical cutter)

G00 Z10.000000
G00 X66.610349 Y11.190580

G01 Z-6.000000 F400.0(Penetrate)
G01 X66.610349 Y6.149670 Z-6.000000 F400.000000
G01 X52.615801 Y6.149670 Z-6.000000
G01 X52.615801 Y11.190580 Z-6.000000
G01 X66.610349 Y11.190580 Z-6.000000
G00 Z10.000000

(End cutting path id: rect894)


(Start cutting path id: circle7919)
(Change tool to Cylindrical cutter)

G00 Z10.000000
G00 X35.426700 Y10.298400

G01 Z-3.100000 F400.0(Penetrate)
G02 X35.060583 Y9.414517 Z-3.100000 I-1.250000 J0.000000 F400.000000
G02 X34.176700 Y9.048400 Z-3.100000 I-0.883884 J0.883884
G02 X33.698343 Y9.143548 Z-3.100000 I-0.000010 J1.250000
G02 X33.292810 Y9.414513 Z-3.100000 I0.478347 J1.154852
G02 X33.021842 Y9.820043 Z-3.100000 I0.883880 J0.883887
G02 X32.926690 Y10.298400 Z-3.100000 I1.154849 J0.478357
G02 X33.021842 Y10.776757 Z-3.100000 I1.250000 J-0.000000
G02 X33.292810 Y11.182287 Z-3.100000 I1.154849 J-0.478357
G02 X33.698343 Y11.453252 Z-3.100000 I0.883880 J-0.883887
G02 X34.176700 Y11.548400 Z-3.100000 I0.478347 J-1.154852
G02 X35.060583 Y11.182283 Z-3.100000 I-0.000000 J-1.250000
G02 X35.426700 Y10.298400 Z-3.100000 I-0.883884 J-0.883884
G01 X35.426700 Y10.298400 Z-3.100000
G00 Z10.000000

(End cutting path id: circle7919)


(Start cutting path id: circle7919)
(Change tool to Cylindrical cutter)

G00 Z10.000000
G00 X35.426700 Y10.298400

G01 Z-6.000000 F400.0(Penetrate)
G02 X35.060583 Y9.414517 Z-6.000000 I-1.250000 J0.000000 F400.000000
G02 X34.176700 Y9.048400 Z-6.000000 I-0.883884 J0.883884
G02 X33.698343 Y9.143548 Z-6.000000 I-0.000010 J1.250000
G02 X33.292810 Y9.414513 Z-6.000000 I0.478347 J1.154852
G02 X33.021842 Y9.820043 Z-6.000000 I0.883880 J0.883887
G02 X32.926690 Y10.298400 Z-6.000000 I1.154849 J0.478357
G02 X33.021842 Y10.776757 Z-6.000000 I1.250000 J-0.000000
G02 X33.292810 Y11.182287 Z-6.000000 I1.154849 J-0.478357
G02 X33.698343 Y11.453252 Z-6.000000 I0.883880 J-0.883887
G02 X34.176700 Y11.548400 Z-6.000000 I0.478347 J-1.154852
G02 X35.060583 Y11.182283 Z-6.000000 I-0.000000 J-1.250000
G02 X35.426700 Y10.298400 Z-6.000000 I-0.883884 J-0.883884
G01 X35.426700 Y10.298400 Z-6.000000
G00 Z10.000000

(End cutting path id: circle7919)


(Start cutting path id: circle7919)
(Change tool to Cylindrical cutter)

G00 Z10.000000
G00 X35.426700 Y10.298400

G01 Z-6.000000 F400.0(Penetrate)
G02 X35.060583 Y9.414517 Z-6.000000 I-1.250000 J0.000000 F400.000000
G02 X34.176700 Y9.048400 Z-6.000000 I-0.883884 J0.883884
G02 X33.698343 Y9.143548 Z-6.000000 I-0.000010 J1.250000
G02 X33.292810 Y9.414513 Z-6.000000 I0.478347 J1.154852
G02 X33.021842 Y9.820043 Z-6.000000 I0.883880 J0.883887
G02 X32.926690 Y10.298400 Z-6.000000 I1.154849 J0.478357
G02 X33.021842 Y10.776757 Z-6.000000 I1.250000 J-0.000000
G02 X33.292810 Y11.182287 Z-6.000000 I1.154849 J-0.478357
G02 X33.698343 Y11.453252 Z-6.000000 I0.883880 J-0.883887
G02 X34.176700 Y11.548400 Z-6.000000 I0.478347 J-1.154852
G02 X35.060583 Y11.182283 Z-6.000000 I-0.000000 J-1.250000
G02 X35.426700 Y10.298400 Z-6.000000 I-0.883884 J-0.883884
G01 X35.426700 Y10.298400 Z-6.000000
G00 Z10.000000

(End cutting path id: circle7919)


(Start cutting path id: circle880-7)
(Change tool to Cylindrical cutter)

G00 Z10.000000
G00 X29.050005 Y10.298400

G01 Z-3.100000 F400.0(Penetrate)
G02 X28.683888 Y9.414517 Z-3.100000 I-1.250000 J0.000000 F400.000000
G02 X27.800005 Y9.048400 Z-3.100000 I-0.883884 J0.883884
G02 X26.916122 Y9.414517 Z-3.100000 I0.000000 J1.250000
G02 X26.550005 Y10.298400 Z-3.100000 I0.883884 J0.883884
G02 X26.916122 Y11.182283 Z-3.100000 I1.250000 J-0.000000
G02 X27.800005 Y11.548400 Z-3.100000 I0.883884 J-0.883884
G02 X28.683888 Y11.182283 Z-3.100000 I-0.000000 J-1.250000
G02 X29.050005 Y10.298400 Z-3.100000 I-0.883884 J-0.883884
G01 X29.050005 Y10.298400 Z-3.100000
G00 Z10.000000

(End cutting path id: circle880-7)


(Start cutting path id: circle880-7)
(Change tool to Cylindrical cutter)

G00 Z10.000000
G00 X29.050005 Y10.298400

G01 Z-6.000000 F400.0(Penetrate)
G02 X28.683888 Y9.414517 Z-6.000000 I-1.250000 J0.000000 F400.000000
G02 X27.800005 Y9.048400 Z-6.000000 I-0.883884 J0.883884
G02 X26.916122 Y9.414517 Z-6.000000 I0.000000 J1.250000
G02 X26.550005 Y10.298400 Z-6.000000 I0.883884 J0.883884
G02 X26.916122 Y11.182283 Z-6.000000 I1.250000 J-0.000000
G02 X27.800005 Y11.548400 Z-6.000000 I0.883884 J-0.883884
G02 X28.683888 Y11.182283 Z-6.000000 I-0.000000 J-1.250000
G02 X29.050005 Y10.298400 Z-6.000000 I-0.883884 J-0.883884
G01 X29.050005 Y10.298400 Z-6.000000
G00 Z10.000000

(End cutting path id: circle880-7)


(Start cutting path id: circle880-7)
(Change tool to Cylindrical cutter)

G00 Z10.000000
G00 X29.050005 Y10.298400

G01 Z-6.000000 F400.0(Penetrate)
G02 X28.683888 Y9.414517 Z-6.000000 I-1.250000 J0.000000 F400.000000
G02 X27.800005 Y9.048400 Z-6.000000 I-0.883884 J0.883884
G02 X26.916122 Y9.414517 Z-6.000000 I0.000000 J1.250000
G02 X26.550005 Y10.298400 Z-6.000000 I0.883884 J0.883884
G02 X26.916122 Y11.182283 Z-6.000000 I1.250000 J-0.000000
G02 X27.800005 Y11.548400 Z-6.000000 I0.883884 J-0.883884
G02 X28.683888 Y11.182283 Z-6.000000 I-0.000000 J-1.250000
G02 X29.050005 Y10.298400 Z-6.000000 I-0.883884 J-0.883884
G01 X29.050005 Y10.298400 Z-6.000000
G00 Z10.000000

(End cutting path id: circle880-7)


(Start cutting path id: rect1044)
(Change tool to Cylindrical cutter)

G00 Z10.000000
G00 X35.057609 Y72.195043

G01 Z-3.100000 F400.0(Penetrate)
G01 X48.557608 Y72.195043 Z-3.100000 F400.000000
G01 X48.557608 Y71.695043 Z-3.100000
G01 X35.057609 Y71.695043 Z-3.100000
G01 X35.057609 Y72.195043 Z-3.100000
G00 Z10.000000

(End cutting path id: rect1044)


(Start cutting path id: rect1044)
(Change tool to Cylindrical cutter)

G00 Z10.000000
G00 X35.057609 Y72.195043

G01 Z-6.000000 F400.0(Penetrate)
G01 X48.557608 Y72.195043 Z-6.000000 F400.000000
G01 X48.557608 Y71.695043 Z-6.000000
G01 X35.057609 Y71.695043 Z-6.000000
G01 X35.057609 Y72.195043 Z-6.000000
G00 Z10.000000

(End cutting path id: rect1044)


(Start cutting path id: rect1044)
(Change tool to Cylindrical cutter)

G00 Z10.000000
G00 X35.057609 Y72.195043

G01 Z-6.000000 F400.0(Penetrate)
G01 X48.557608 Y72.195043 Z-6.000000 F400.000000
G01 X48.557608 Y71.695043 Z-6.000000
G01 X35.057609 Y71.695043 Z-6.000000
G01 X35.057609 Y72.195043 Z-6.000000
G00 Z10.000000

(End cutting path id: rect1044)


(Start cutting path id: circle1020)
(Change tool to Cylindrical cutter)

G00 Z10.000000
G00 X28.593137 Y94.186718

G01 Z-3.100000 F400.0(Penetrate)
G02 X28.227020 Y93.302835 Z-3.100000 I-1.250000 J0.000000 F400.000000
G02 X27.343137 Y92.936718 Z-3.100000 I-0.883884 J0.883884
G02 X26.864782 Y93.031868 Z-3.100000 I-0.000001 J1.250000
G02 X26.459253 Y93.302834 Z-3.100000 I0.478354 J1.154850
G02 X26.188287 Y93.708363 Z-3.100000 I0.883883 J0.883884
G02 X26.093136 Y94.186718 Z-3.100000 I1.154849 J0.478355
G02 X26.188287 Y94.665073 Z-3.100000 I1.250000 J-0.000000
G02 X26.459253 Y95.070602 Z-3.100000 I1.154849 J-0.478355
G02 X26.864782 Y95.341568 Z-3.100000 I0.883883 J-0.883884
G02 X27.343137 Y95.436718 Z-3.100000 I0.478354 J-1.154850
G02 X28.227020 Y95.070601 Z-3.100000 I-0.000000 J-1.250000
G02 X28.593137 Y94.186718 Z-3.100000 I-0.883884 J-0.883884
G01 X28.593137 Y94.186718 Z-3.100000
G00 Z10.000000

(End cutting path id: circle1020)


(Start cutting path id: circle1020)
(Change tool to Cylindrical cutter)

G00 Z10.000000
G00 X28.593137 Y94.186718

G01 Z-6.000000 F400.0(Penetrate)
G02 X28.227020 Y93.302835 Z-6.000000 I-1.250000 J0.000000 F400.000000
G02 X27.343137 Y92.936718 Z-6.000000 I-0.883884 J0.883884
G02 X26.864782 Y93.031868 Z-6.000000 I-0.000001 J1.250000
G02 X26.459253 Y93.302834 Z-6.000000 I0.478354 J1.154850
G02 X26.188287 Y93.708363 Z-6.000000 I0.883883 J0.883884
G02 X26.093136 Y94.186718 Z-6.000000 I1.154849 J0.478355
G02 X26.188287 Y94.665073 Z-6.000000 I1.250000 J-0.000000
G02 X26.459253 Y95.070602 Z-6.000000 I1.154849 J-0.478355
G02 X26.864782 Y95.341568 Z-6.000000 I0.883883 J-0.883884
G02 X27.343137 Y95.436718 Z-6.000000 I0.478354 J-1.154850
G02 X28.227020 Y95.070601 Z-6.000000 I-0.000000 J-1.250000
G02 X28.593137 Y94.186718 Z-6.000000 I-0.883884 J-0.883884
G01 X28.593137 Y94.186718 Z-6.000000
G00 Z10.000000

(End cutting path id: circle1020)


(Start cutting path id: circle1020)
(Change tool to Cylindrical cutter)

G00 Z10.000000
G00 X28.593137 Y94.186718

G01 Z-6.000000 F400.0(Penetrate)
G02 X28.227020 Y93.302835 Z-6.000000 I-1.250000 J0.000000 F400.000000
G02 X27.343137 Y92.936718 Z-6.000000 I-0.883884 J0.883884
G02 X26.864782 Y93.031868 Z-6.000000 I-0.000001 J1.250000
G02 X26.459253 Y93.302834 Z-6.000000 I0.478354 J1.154850
G02 X26.188287 Y93.708363 Z-6.000000 I0.883883 J0.883884
G02 X26.093136 Y94.186718 Z-6.000000 I1.154849 J0.478355
G02 X26.188287 Y94.665073 Z-6.000000 I1.250000 J-0.000000
G02 X26.459253 Y95.070602 Z-6.000000 I1.154849 J-0.478355
G02 X26.864782 Y95.341568 Z-6.000000 I0.883883 J-0.883884
G02 X27.343137 Y95.436718 Z-6.000000 I0.478354 J-1.154850
G02 X28.227020 Y95.070601 Z-6.000000 I-0.000000 J-1.250000
G02 X28.593137 Y94.186718 Z-6.000000 I-0.883884 J-0.883884
G01 X28.593137 Y94.186718 Z-6.000000
G00 Z10.000000

(End cutting path id: circle1020)


(Start cutting path id: path3484)
(Change tool to Cylindrical cutter)

G00 Z10.000000
G00 X92.868357 Y87.636040

G01 Z-3.100000 F400.0(Penetrate)
G02 X93.292183 Y81.850102 Z-3.100000 I-16.211606 J-4.096009 F400.000000
G03 X97.291490 Y70.487027 Z-3.100000 I14.078788 J-1.430209
G03 X107.129470 Y66.988811 Z-3.100000 I8.529927 J8.405877
G02 X110.588740 Y67.174010 Z-3.100000 I3.382717 J-30.784818
G02 X112.928370 Y65.054621 Z-3.100000 I-0.005802 J-2.357478
G02 X112.868430 Y60.109762 Z-3.100000 I-21.761110 J-2.209012
G01 X58.494684 Y60.314806 Z-3.100000
G02 X57.591433 Y79.094402 Z-3.100000 I156.208764 J16.924767
G02 X61.654396 Y86.448061 Z-3.100000 I8.875925 J-0.104787
G02 X70.468501 Y88.940409 Z-3.100000 I8.471663 J-13.128183
G02 X92.868357 Y87.636040 Z-3.100000 I-6.785283 J-309.511160
G01 X92.868357 Y87.636040 Z-3.100000
G00 Z10.000000

(End cutting path id: path3484)


(Start cutting path id: path3484)
(Change tool to Cylindrical cutter)

G00 Z10.000000
G00 X92.868357 Y87.636040

G01 Z-6.000000 F400.0(Penetrate)
G02 X93.292183 Y81.850102 Z-6.000000 I-16.211606 J-4.096009 F400.000000
G03 X97.291490 Y70.487027 Z-6.000000 I14.078788 J-1.430209
G03 X107.129470 Y66.988811 Z-6.000000 I8.529927 J8.405877
G02 X110.588740 Y67.174010 Z-6.000000 I3.382717 J-30.784818
G02 X112.928370 Y65.054621 Z-6.000000 I-0.005802 J-2.357478
G02 X112.868430 Y60.109762 Z-6.000000 I-21.761110 J-2.209012
G01 X58.494684 Y60.314806 Z-6.000000
G02 X57.591433 Y79.094402 Z-6.000000 I156.208764 J16.924767
G02 X61.654396 Y86.448061 Z-6.000000 I8.875925 J-0.104787
G02 X70.468501 Y88.940409 Z-6.000000 I8.471663 J-13.128183
G02 X92.868357 Y87.636040 Z-6.000000 I-6.785283 J-309.511160
G01 X92.868357 Y87.636040 Z-6.000000
G00 Z10.000000

(End cutting path id: path3484)


(Start cutting path id: path3484)
(Change tool to Cylindrical cutter)

G00 Z10.000000
G00 X92.868357 Y87.636040

G01 Z-6.000000 F400.0(Penetrate)
G02 X93.292183 Y81.850102 Z-6.000000 I-16.211606 J-4.096009 F400.000000
G03 X97.291490 Y70.487027 Z-6.000000 I14.078788 J-1.430209
G03 X107.129470 Y66.988811 Z-6.000000 I8.529927 J8.405877
G02 X110.588740 Y67.174010 Z-6.000000 I3.382717 J-30.784818
G02 X112.928370 Y65.054621 Z-6.000000 I-0.005802 J-2.357478
G02 X112.868430 Y60.109762 Z-6.000000 I-21.761110 J-2.209012
G01 X58.494684 Y60.314806 Z-6.000000
G02 X57.591433 Y79.094402 Z-6.000000 I156.208764 J16.924767
G02 X61.654396 Y86.448061 Z-6.000000 I8.875925 J-0.104787
G02 X70.468501 Y88.940409 Z-6.000000 I8.471663 J-13.128183
G02 X92.868357 Y87.636040 Z-6.000000 I-6.785283 J-309.511160
G01 X92.868357 Y87.636040 Z-6.000000
G00 Z10.000000

(End cutting path id: path3484)


(Start cutting path id: rect1046)
(Change tool to Cylindrical cutter)

G00 Z10.000000
G00 X102.261820 Y72.195043

G01 Z-3.100000 F400.0(Penetrate)
G01 X115.761820 Y72.195043 Z-3.100000 F400.000000
G01 X115.761820 Y71.695043 Z-3.100000
G01 X102.261820 Y71.695043 Z-3.100000
G01 X102.261820 Y72.195043 Z-3.100000
G00 Z10.000000

(End cutting path id: rect1046)


(Start cutting path id: rect1046)
(Change tool to Cylindrical cutter)

G00 Z10.000000
G00 X102.261820 Y72.195043

G01 Z-6.000000 F400.0(Penetrate)
G01 X115.761820 Y72.195043 Z-6.000000 F400.000000
G01 X115.761820 Y71.695043 Z-6.000000
G01 X102.261820 Y71.695043 Z-6.000000
G01 X102.261820 Y72.195043 Z-6.000000
G00 Z10.000000

(End cutting path id: rect1046)


(Start cutting path id: rect1046)
(Change tool to Cylindrical cutter)

G00 Z10.000000
G00 X102.261820 Y72.195043

G01 Z-6.000000 F400.0(Penetrate)
G01 X115.761820 Y72.195043 Z-6.000000 F400.000000
G01 X115.761820 Y71.695043 Z-6.000000
G01 X102.261820 Y71.695043 Z-6.000000
G01 X102.261820 Y72.195043 Z-6.000000
G00 Z10.000000

(End cutting path id: rect1046)


(Start cutting path id: circle1018)
(Change tool to Cylindrical cutter)

G00 Z10.000000
G00 X123.313790 Y93.185726

G01 Z-3.100000 F400.0(Penetrate)
G02 X122.947673 Y92.301843 Z-3.100000 I-1.250000 J0.000000 F400.000000
G02 X122.063790 Y91.935726 Z-3.100000 I-0.883884 J0.883884
G02 X121.179907 Y92.301843 Z-3.100000 I0.000000 J1.250000
G02 X120.813790 Y93.185726 Z-3.100000 I0.883884 J0.883884
G02 X121.179907 Y94.069609 Z-3.100000 I1.250000 J-0.000000
G02 X122.063790 Y94.435726 Z-3.100000 I0.883884 J-0.883884
G02 X122.947673 Y94.069609 Z-3.100000 I-0.000000 J-1.250000
G02 X123.313790 Y93.185726 Z-3.100000 I-0.883884 J-0.883884
G01 X123.313790 Y93.185726 Z-3.100000
G00 Z10.000000

(End cutting path id: circle1018)


(Start cutting path id: circle1018)
(Change tool to Cylindrical cutter)

G00 Z10.000000
G00 X123.313790 Y93.185726

G01 Z-6.000000 F400.0(Penetrate)
G02 X122.947673 Y92.301843 Z-6.000000 I-1.250000 J0.000000 F400.000000
G02 X122.063790 Y91.935726 Z-6.000000 I-0.883884 J0.883884
G02 X121.179907 Y92.301843 Z-6.000000 I0.000000 J1.250000
G02 X120.813790 Y93.185726 Z-6.000000 I0.883884 J0.883884
G02 X121.179907 Y94.069609 Z-6.000000 I1.250000 J-0.000000
G02 X122.063790 Y94.435726 Z-6.000000 I0.883884 J-0.883884
G02 X122.947673 Y94.069609 Z-6.000000 I-0.000000 J-1.250000
G02 X123.313790 Y93.185726 Z-6.000000 I-0.883884 J-0.883884
G01 X123.313790 Y93.185726 Z-6.000000
G00 Z10.000000

(End cutting path id: circle1018)


(Start cutting path id: circle1018)
(Change tool to Cylindrical cutter)

G00 Z10.000000
G00 X123.313790 Y93.185726

G01 Z-6.000000 F400.0(Penetrate)
G02 X122.947673 Y92.301843 Z-6.000000 I-1.250000 J0.000000 F400.000000
G02 X122.063790 Y91.935726 Z-6.000000 I-0.883884 J0.883884
G02 X121.179907 Y92.301843 Z-6.000000 I0.000000 J1.250000
G02 X120.813790 Y93.185726 Z-6.000000 I0.883884 J0.883884
G02 X121.179907 Y94.069609 Z-6.000000 I1.250000 J-0.000000
G02 X122.063790 Y94.435726 Z-6.000000 I0.883884 J-0.883884
G02 X122.947673 Y94.069609 Z-6.000000 I-0.000000 J-1.250000
G02 X123.313790 Y93.185726 Z-6.000000 I-0.883884 J-0.883884
G01 X123.313790 Y93.185726 Z-6.000000
G00 Z10.000000

(End cutting path id: circle1018)


(Start cutting path id: circle50321)
(Change tool to Cylindrical cutter)

G00 Z10.000000
G00 X121.145230 Y48.711620

G01 Z-3.100000 F400.0(Penetrate)
G02 X121.110976 Y48.539412 Z-3.100000 I-0.450000 J-0.000000 F400.000000
G02 X121.013428 Y48.393422 Z-3.100000 I-0.415746 J0.172208
G02 X120.867438 Y48.295874 Z-3.100000 I-0.318198 J0.318198
G02 X120.695230 Y48.261620 Z-3.100000 I-0.172208 J0.415746
G02 X120.523022 Y48.295874 Z-3.100000 I-0.000000 J0.450000
G02 X120.377032 Y48.393422 Z-3.100000 I0.172208 J0.415746
G02 X120.279484 Y48.539412 Z-3.100000 I0.318198 J0.318198
G02 X120.245230 Y48.711620 Z-3.100000 I0.415746 J0.172208
G02 X120.279484 Y48.883828 Z-3.100000 I0.450000 J0.000000
G02 X120.377032 Y49.029818 Z-3.100000 I0.415746 J-0.172208
G02 X120.523022 Y49.127366 Z-3.100000 I0.318198 J-0.318198
G02 X120.695230 Y49.161620 Z-3.100000 I0.172208 J-0.415746
G02 X120.867438 Y49.127366 Z-3.100000 I0.000000 J-0.450000
G02 X121.013428 Y49.029818 Z-3.100000 I-0.172208 J-0.415746
G02 X121.110976 Y48.883828 Z-3.100000 I-0.318198 J-0.318198
G02 X121.145230 Y48.711620 Z-3.100000 I-0.415746 J-0.172208
G01 X121.145230 Y48.711620 Z-3.100000
G00 Z10.000000

(End cutting path id: circle50321)


(Start cutting path id: circle50321)
(Change tool to Cylindrical cutter)

G00 Z10.000000
G00 X121.145230 Y48.711620

G01 Z-6.000000 F400.0(Penetrate)
G02 X121.110976 Y48.539412 Z-6.000000 I-0.450000 J-0.000000 F400.000000
G02 X121.013428 Y48.393422 Z-6.000000 I-0.415746 J0.172208
G02 X120.867438 Y48.295874 Z-6.000000 I-0.318198 J0.318198
G02 X120.695230 Y48.261620 Z-6.000000 I-0.172208 J0.415746
G02 X120.523022 Y48.295874 Z-6.000000 I-0.000000 J0.450000
G02 X120.377032 Y48.393422 Z-6.000000 I0.172208 J0.415746
G02 X120.279484 Y48.539412 Z-6.000000 I0.318198 J0.318198
G02 X120.245230 Y48.711620 Z-6.000000 I0.415746 J0.172208
G02 X120.279484 Y48.883828 Z-6.000000 I0.450000 J0.000000
G02 X120.377032 Y49.029818 Z-6.000000 I0.415746 J-0.172208
G02 X120.523022 Y49.127366 Z-6.000000 I0.318198 J-0.318198
G02 X120.695230 Y49.161620 Z-6.000000 I0.172208 J-0.415746
G02 X120.867438 Y49.127366 Z-6.000000 I0.000000 J-0.450000
G02 X121.013428 Y49.029818 Z-6.000000 I-0.172208 J-0.415746
G02 X121.110976 Y48.883828 Z-6.000000 I-0.318198 J-0.318198
G02 X121.145230 Y48.711620 Z-6.000000 I-0.415746 J-0.172208
G01 X121.145230 Y48.711620 Z-6.000000
G00 Z10.000000

(End cutting path id: circle50321)


(Start cutting path id: circle50321)
(Change tool to Cylindrical cutter)

G00 Z10.000000
G00 X121.145230 Y48.711620

G01 Z-6.000000 F400.0(Penetrate)
G02 X121.110976 Y48.539412 Z-6.000000 I-0.450000 J-0.000000 F400.000000
G02 X121.013428 Y48.393422 Z-6.000000 I-0.415746 J0.172208
G02 X120.867438 Y48.295874 Z-6.000000 I-0.318198 J0.318198
G02 X120.695230 Y48.261620 Z-6.000000 I-0.172208 J0.415746
G02 X120.523022 Y48.295874 Z-6.000000 I-0.000000 J0.450000
G02 X120.377032 Y48.393422 Z-6.000000 I0.172208 J0.415746
G02 X120.279484 Y48.539412 Z-6.000000 I0.318198 J0.318198
G02 X120.245230 Y48.711620 Z-6.000000 I0.415746 J0.172208
G02 X120.279484 Y48.883828 Z-6.000000 I0.450000 J0.000000
G02 X120.377032 Y49.029818 Z-6.000000 I0.415746 J-0.172208
G02 X120.523022 Y49.127366 Z-6.000000 I0.318198 J-0.318198
G02 X120.695230 Y49.161620 Z-6.000000 I0.172208 J-0.415746
G02 X120.867438 Y49.127366 Z-6.000000 I0.000000 J-0.450000
G02 X121.013428 Y49.029818 Z-6.000000 I-0.172208 J-0.415746
G02 X121.110976 Y48.883828 Z-6.000000 I-0.318198 J-0.318198
G02 X121.145230 Y48.711620 Z-6.000000 I-0.415746 J-0.172208
G01 X121.145230 Y48.711620 Z-6.000000
G00 Z10.000000

(End cutting path id: circle50321)


(Start cutting path id: path50319)
(Change tool to Cylindrical cutter)

G00 Z10.000000
G00 X121.145230 Y38.711620

G01 Z-3.100000 F400.0(Penetrate)
G02 X121.110976 Y38.539412 Z-3.100000 I-0.450000 J-0.000000 F400.000000
G02 X121.013428 Y38.393422 Z-3.100000 I-0.415746 J0.172208
G02 X120.867438 Y38.295874 Z-3.100000 I-0.318198 J0.318198
G02 X120.695230 Y38.261620 Z-3.100000 I-0.172208 J0.415746
G02 X120.523022 Y38.295874 Z-3.100000 I-0.000000 J0.450000
G02 X120.377032 Y38.393422 Z-3.100000 I0.172208 J0.415746
G02 X120.279484 Y38.539412 Z-3.100000 I0.318198 J0.318198
G02 X120.245230 Y38.711620 Z-3.100000 I0.415746 J0.172208
G02 X120.279484 Y38.883828 Z-3.100000 I0.450000 J0.000000
G02 X120.377032 Y39.029818 Z-3.100000 I0.415746 J-0.172208
G02 X120.523022 Y39.127366 Z-3.100000 I0.318198 J-0.318198
G02 X120.695230 Y39.161620 Z-3.100000 I0.172208 J-0.415746
G02 X120.867438 Y39.127366 Z-3.100000 I0.000000 J-0.450000
G02 X121.013428 Y39.029818 Z-3.100000 I-0.172208 J-0.415746
G02 X121.110976 Y38.883828 Z-3.100000 I-0.318198 J-0.318198
G02 X121.145230 Y38.711620 Z-3.100000 I-0.415746 J-0.172208
G01 X121.145230 Y38.711620 Z-3.100000
G00 Z10.000000

(End cutting path id: path50319)


(Start cutting path id: path50319)
(Change tool to Cylindrical cutter)

G00 Z10.000000
G00 X121.145230 Y38.711620

G01 Z-6.000000 F400.0(Penetrate)
G02 X121.110976 Y38.539412 Z-6.000000 I-0.450000 J-0.000000 F400.000000
G02 X121.013428 Y38.393422 Z-6.000000 I-0.415746 J0.172208
G02 X120.867438 Y38.295874 Z-6.000000 I-0.318198 J0.318198
G02 X120.695230 Y38.261620 Z-6.000000 I-0.172208 J0.415746
G02 X120.523022 Y38.295874 Z-6.000000 I-0.000000 J0.450000
G02 X120.377032 Y38.393422 Z-6.000000 I0.172208 J0.415746
G02 X120.279484 Y38.539412 Z-6.000000 I0.318198 J0.318198
G02 X120.245230 Y38.711620 Z-6.000000 I0.415746 J0.172208
G02 X120.279484 Y38.883828 Z-6.000000 I0.450000 J0.000000
G02 X120.377032 Y39.029818 Z-6.000000 I0.415746 J-0.172208
G02 X120.523022 Y39.127366 Z-6.000000 I0.318198 J-0.318198
G02 X120.695230 Y39.161620 Z-6.000000 I0.172208 J-0.415746
G02 X120.867438 Y39.127366 Z-6.000000 I0.000000 J-0.450000
G02 X121.013428 Y39.029818 Z-6.000000 I-0.172208 J-0.415746
G02 X121.110976 Y38.883828 Z-6.000000 I-0.318198 J-0.318198
G02 X121.145230 Y38.711620 Z-6.000000 I-0.415746 J-0.172208
G01 X121.145230 Y38.711620 Z-6.000000
G00 Z10.000000

(End cutting path id: path50319)


(Start cutting path id: path50319)
(Change tool to Cylindrical cutter)

G00 Z10.000000
G00 X121.145230 Y38.711620

G01 Z-6.000000 F400.0(Penetrate)
G02 X121.110976 Y38.539412 Z-6.000000 I-0.450000 J-0.000000 F400.000000
G02 X121.013428 Y38.393422 Z-6.000000 I-0.415746 J0.172208
G02 X120.867438 Y38.295874 Z-6.000000 I-0.318198 J0.318198
G02 X120.695230 Y38.261620 Z-6.000000 I-0.172208 J0.415746
G02 X120.523022 Y38.295874 Z-6.000000 I-0.000000 J0.450000
G02 X120.377032 Y38.393422 Z-6.000000 I0.172208 J0.415746
G02 X120.279484 Y38.539412 Z-6.000000 I0.318198 J0.318198
G02 X120.245230 Y38.711620 Z-6.000000 I0.415746 J0.172208
G02 X120.279484 Y38.883828 Z-6.000000 I0.450000 J0.000000
G02 X120.377032 Y39.029818 Z-6.000000 I0.415746 J-0.172208
G02 X120.523022 Y39.127366 Z-6.000000 I0.318198 J-0.318198
G02 X120.695230 Y39.161620 Z-6.000000 I0.172208 J-0.415746
G02 X120.867438 Y39.127366 Z-6.000000 I0.000000 J-0.450000
G02 X121.013428 Y39.029818 Z-6.000000 I-0.172208 J-0.415746
G02 X121.110976 Y38.883828 Z-6.000000 I-0.318198 J-0.318198
G02 X121.145230 Y38.711620 Z-6.000000 I-0.415746 J-0.172208
G01 X121.145230 Y38.711620 Z-6.000000
G00 Z10.000000

(End cutting path id: path50319)


(Start cutting path id: rect896)
(Change tool to Cylindrical cutter)

G00 Z10.000000
G00 X122.174140 Y10.974230

G01 Z-3.100000 F400.0(Penetrate)
G01 X122.174140 Y6.149680 Z-3.100000 F400.000000
G01 X107.932320 Y6.149680 Z-3.100000
G01 X107.932320 Y10.974230 Z-3.100000
G01 X122.174140 Y10.974230 Z-3.100000
G00 Z10.000000

(End cutting path id: rect896)


(Start cutting path id: rect896)
(Change tool to Cylindrical cutter)

G00 Z10.000000
G00 X122.174140 Y10.974230

G01 Z-6.000000 F400.0(Penetrate)
G01 X122.174140 Y6.149680 Z-6.000000 F400.000000
G01 X107.932320 Y6.149680 Z-6.000000
G01 X107.932320 Y10.974230 Z-6.000000
G01 X122.174140 Y10.974230 Z-6.000000
G00 Z10.000000

(End cutting path id: rect896)


(Start cutting path id: rect896)
(Change tool to Cylindrical cutter)

G00 Z10.000000
G00 X122.174140 Y10.974230

G01 Z-6.000000 F400.0(Penetrate)
G01 X122.174140 Y6.149680 Z-6.000000 F400.000000
G01 X107.932320 Y6.149680 Z-6.000000
G01 X107.932320 Y10.974230 Z-6.000000
G01 X122.174140 Y10.974230 Z-6.000000
G00 Z10.000000

(End cutting path id: rect896)


(Start cutting path id: circle7917)
(Change tool to Cylindrical cutter)

G00 Z10.000000
G00 X140.190530 Y10.572850

G01 Z-3.100000 F400.0(Penetrate)
G02 X139.824413 Y9.688967 Z-3.100000 I-1.250000 J0.000000 F400.000000
G02 X138.940530 Y9.322850 Z-3.100000 I-0.883884 J0.883884
G02 X138.056647 Y9.688967 Z-3.100000 I0.000000 J1.250000
G02 X137.690530 Y10.572850 Z-3.100000 I0.883884 J0.883884
G02 X138.056647 Y11.456733 Z-3.100000 I1.250000 J-0.000000
G02 X138.940530 Y11.822850 Z-3.100000 I0.883884 J-0.883884
G02 X139.824413 Y11.456733 Z-3.100000 I-0.000000 J-1.250000
G02 X140.190530 Y10.572850 Z-3.100000 I-0.883884 J-0.883884
G01 X140.190530 Y10.572850 Z-3.100000
G00 Z10.000000

(End cutting path id: circle7917)


(Start cutting path id: circle7917)
(Change tool to Cylindrical cutter)

G00 Z10.000000
G00 X140.190530 Y10.572850

G01 Z-6.000000 F400.0(Penetrate)
G02 X139.824413 Y9.688967 Z-6.000000 I-1.250000 J0.000000 F400.000000
G02 X138.940530 Y9.322850 Z-6.000000 I-0.883884 J0.883884
G02 X138.056647 Y9.688967 Z-6.000000 I0.000000 J1.250000
G02 X137.690530 Y10.572850 Z-6.000000 I0.883884 J0.883884
G02 X138.056647 Y11.456733 Z-6.000000 I1.250000 J-0.000000
G02 X138.940530 Y11.822850 Z-6.000000 I0.883884 J-0.883884
G02 X139.824413 Y11.456733 Z-6.000000 I-0.000000 J-1.250000
G02 X140.190530 Y10.572850 Z-6.000000 I-0.883884 J-0.883884
G01 X140.190530 Y10.572850 Z-6.000000
G00 Z10.000000

(End cutting path id: circle7917)


(Start cutting path id: circle7917)
(Change tool to Cylindrical cutter)

G00 Z10.000000
G00 X140.190530 Y10.572850

G01 Z-6.000000 F400.0(Penetrate)
G02 X139.824413 Y9.688967 Z-6.000000 I-1.250000 J0.000000 F400.000000
G02 X138.940530 Y9.322850 Z-6.000000 I-0.883884 J0.883884
G02 X138.056647 Y9.688967 Z-6.000000 I0.000000 J1.250000
G02 X137.690530 Y10.572850 Z-6.000000 I0.883884 J0.883884
G02 X138.056647 Y11.456733 Z-6.000000 I1.250000 J-0.000000
G02 X138.940530 Y11.822850 Z-6.000000 I0.883884 J-0.883884
G02 X139.824413 Y11.456733 Z-6.000000 I-0.000000 J-1.250000
G02 X140.190530 Y10.572850 Z-6.000000 I-0.883884 J-0.883884
G01 X140.190530 Y10.572850 Z-6.000000
G00 Z10.000000

(End cutting path id: circle7917)


(Start cutting path id: circle869-9)
(Change tool to Cylindrical cutter)

G00 Z10.000000
G00 X146.521000 Y10.572850

G01 Z-3.100000 F400.0(Penetrate)
G02 X146.154883 Y9.688967 Z-3.100000 I-1.250000 J0.000000 F400.000000
G02 X145.271000 Y9.322850 Z-3.100000 I-0.883884 J0.883884
G02 X144.387117 Y9.688967 Z-3.100000 I0.000000 J1.250000
G02 X144.021000 Y10.572850 Z-3.100000 I0.883884 J0.883884
G02 X144.387117 Y11.456733 Z-3.100000 I1.250000 J-0.000000
G02 X145.271000 Y11.822850 Z-3.100000 I0.883884 J-0.883884
G02 X146.154883 Y11.456733 Z-3.100000 I-0.000000 J-1.250000
G02 X146.521000 Y10.572850 Z-3.100000 I-0.883884 J-0.883884
G01 X146.521000 Y10.572850 Z-3.100000
G00 Z10.000000

(End cutting path id: circle869-9)


(Start cutting path id: circle869-9)
(Change tool to Cylindrical cutter)

G00 Z10.000000
G00 X146.521000 Y10.572850

G01 Z-6.000000 F400.0(Penetrate)
G02 X146.154883 Y9.688967 Z-6.000000 I-1.250000 J0.000000 F400.000000
G02 X145.271000 Y9.322850 Z-6.000000 I-0.883884 J0.883884
G02 X144.387117 Y9.688967 Z-6.000000 I0.000000 J1.250000
G02 X144.021000 Y10.572850 Z-6.000000 I0.883884 J0.883884
G02 X144.387117 Y11.456733 Z-6.000000 I1.250000 J-0.000000
G02 X145.271000 Y11.822850 Z-6.000000 I0.883884 J-0.883884
G02 X146.154883 Y11.456733 Z-6.000000 I-0.000000 J-1.250000
G02 X146.521000 Y10.572850 Z-6.000000 I-0.883884 J-0.883884
G01 X146.521000 Y10.572850 Z-6.000000
G00 Z10.000000

(End cutting path id: circle869-9)


(Start cutting path id: circle869-9)
(Change tool to Cylindrical cutter)

G00 Z10.000000
G00 X146.521000 Y10.572850

G01 Z-6.000000 F400.0(Penetrate)
G02 X146.154883 Y9.688967 Z-6.000000 I-1.250000 J0.000000 F400.000000
G02 X145.271000 Y9.322850 Z-6.000000 I-0.883884 J0.883884
G02 X144.387117 Y9.688967 Z-6.000000 I0.000000 J1.250000
G02 X144.021000 Y10.572850 Z-6.000000 I0.883884 J0.883884
G02 X144.387117 Y11.456733 Z-6.000000 I1.250000 J-0.000000
G02 X145.271000 Y11.822850 Z-6.000000 I0.883884 J-0.883884
G02 X146.154883 Y11.456733 Z-6.000000 I-0.000000 J-1.250000
G02 X146.521000 Y10.572850 Z-6.000000 I-0.883884 J-0.883884
G01 X146.521000 Y10.572850 Z-6.000000
G00 Z10.000000

(End cutting path id: circle869-9)


(Footer)
M5
G00 X0.0000 Y0.0000
M2
(Using default footer. To add your own footer create file "footer" in the output dir.)
(end)
%