%
(Header)
(Generated by gcodetools from Inkscape.)
(Using default header. To add your own header create file "header" in the output dir.)
M3
(Header end.)
G21 (All units in mm)

(Start cutting path id: path1000)
(Change tool to Cylindrical cutter)

G00 Z12.000000
G00 X14.646324 Y94.142804

G01 Z0.900000 F400.0(Penetrate)
G02 X14.772665 Y94.049012 Z0.900000 I0.000000 J-0.131988 F400.000000
G02 X14.866457 Y93.414672 Z0.900000 I-2.098200 J-0.634340
G01 X14.866457 Y93.059072 Z0.900000
G02 X14.754848 Y91.971159 Z0.900000 I-9.400749 J0.414740
G02 X14.680191 Y91.907608 Z0.900000 I-0.074657 J0.012077
G01 X13.748859 Y91.636675 Z0.900000
G01 X13.698059 Y91.653605 Z0.900000
G03 X13.371491 Y91.377659 Z0.900000 I0.336864 J-0.729873
G03 X13.257794 Y91.010140 Z0.900000 I0.537144 J-0.367519
G03 X13.441777 Y90.571106 Z0.900000 I0.615820 J0.000000
G03 X14.290725 Y89.994142 Z0.900000 I2.007864 J2.041328
G02 X14.747899 Y89.763991 Z0.900000 I-1.322821 J-3.196812
G02 X14.798724 Y89.689343 Z0.900000 I-0.055413 J-0.092355
G03 X14.823940 Y89.032735 Z0.900000 I8.561521 J-0.000000
G03 X14.866454 Y88.808811 Z0.900000 I1.027071 J0.079002
G01 X14.866454 Y87.200148 Z0.900000
G02 X14.748774 Y86.955299 Z0.900000 I-0.313560 J0.000000
G02 X14.273789 Y86.726015 Z0.900000 I-0.738351 J0.922936
G03 X13.337203 Y86.006082 Z0.900000 I1.330424 J-2.699979
G03 X13.105391 Y85.388284 Z0.900000 I0.707334 J-0.617798
G01 X13.105391 Y85.269751 Z0.900000
G03 X13.336106 Y84.861513 Z0.900000 I0.476536 J0.000000
G03 X14.680188 Y84.321487 Z0.900000 I2.345637 J3.895437
G02 X14.768132 Y84.181389 Z0.900000 I-0.189575 J-0.216654
G02 X14.815654 Y83.830421 Z0.900000 I-1.272265 J-0.350968
G03 X14.802629 Y83.474729 Z0.900000 I16.202294 J-0.771388
G03 X14.798724 Y83.170022 Z0.900000 I11.885898 J-0.304707
G01 X14.798724 Y82.170957 Z0.900000
G02 X14.783845 Y82.135036 Z0.900000 I-0.050800 J0.000000
G02 X14.747924 Y82.120157 Z0.900000 I-0.035921 J0.035921
G01 X14.087525 Y82.120157 Z0.900000
G03 X14.051604 Y82.105278 Z0.900000 I-0.000000 J-0.050800
G03 X14.036725 Y82.069357 Z0.900000 I0.035921 J-0.035921
G02 X13.821878 Y82.122497 Z0.900000 I0.155900 J1.091186
G01 X13.799659 Y82.154027 Z0.900000
G02 X13.747729 Y82.123887 Z0.900000 I-0.268046 J0.402029
G01 X13.731929 Y82.120157 Z0.900000
G02 X13.034393 Y82.200807 Z0.900000 I-0.000000 J3.056803
G02 X11.564467 Y82.628156 Z0.900000 I3.315096 J14.144408
G02 X10.673015 Y83.179050 Z0.900000 I26.193268 J43.382474
G02 X10.412999 Y83.356291 Z0.900000 I2.442243 J3.862145
G02 X9.846724 Y84.215037 Z0.900000 I1.932256 J1.890250
G02 X9.651001 Y85.202021 Z0.900000 I2.390694 J0.986984
G01 X9.651001 Y85.252821 Z0.900000
G02 X9.699047 Y85.614012 Z0.900000 I1.381673 J-0.000000
G02 X9.871134 Y86.065619 Z0.900000 I2.346105 J-0.635404
G01 X9.882340 Y86.073433 Z0.900000
G03 X9.989667 Y86.387352 Z0.900000 I-6.608547 J2.434726
G02 X10.299378 Y86.952203 Z0.900000 I4.029412 J-1.842015
G02 X10.548466 Y87.250950 Z0.900000 I1.356149 J-0.877508
G01 X10.599266 Y87.217080 Z0.900000
G01 X11.259664 Y87.725079 Z0.900000
G02 X11.307907 Y87.812797 Z0.900000 I0.103869 J0.000000
G02 X11.953930 Y88.165345 Z0.900000 I3.006342 J-4.740771
G01 X11.953930 Y88.199215 Z0.900000
G02 X11.511423 Y88.420416 Z0.900000 I0.691926 J1.937394
G02 X10.954865 Y88.859614 Z0.900000 I2.329901 J3.524721
G01 X10.966839 Y88.864573 Z0.900000
G01 X10.971798 Y88.876544 Z0.900000
G02 X10.406722 Y89.548000 Z0.900000 I5.420891 J5.135550
G02 X10.226733 Y89.875612 Z0.900000 I1.085997 J0.809893
G01 X10.192866 Y89.875612 Z0.900000
G01 X10.142066 Y89.858682 Z0.900000
G02 X10.017352 Y90.286843 Z0.900000 I3.379378 J1.216582
G02 X9.989667 Y90.536011 Z0.900000 I1.107414 J0.249168
G01 X9.989667 Y91.281076 Z0.900000
G02 X10.158678 Y91.923142 Z0.900000 I1.304092 J0.000000
G02 X10.937932 Y92.957473 Z0.900000 I4.318422 J-2.442743
G02 X11.499546 Y93.329713 Z0.900000 I3.476358 J-4.635146
G02 X12.072463 Y93.617871 Z0.900000 I2.640557 J-4.536347
G02 X13.480344 Y94.016657 Z0.900000 I3.368030 J-9.205945
G02 X14.561658 Y94.125870 Z0.900000 I1.081314 J-5.298440
G01 X14.569285 Y94.135173 Z0.900000
G02 X14.646328 Y94.142800 Z0.900000 I0.077043 J-0.385306
G01 X14.646324 Y94.142804 Z0.900000
G00 Z12.000000

(Change tool to Cylindrical cutter)

G00 Z12.000000
G00 X15.763922 Y94.142804

G01 Z0.900000 F400.0(Penetrate)
G02 X16.152301 Y94.128951 Z0.900000 I0.000000 J-5.451152 F400.000000
G02 X16.475121 Y94.092004 Z0.900000 I-0.271497 J-3.800948
G01 X16.458191 Y94.041204 Z0.900000
G01 X16.508991 Y94.041204 Z0.900000
G01 X16.508991 Y94.092004 Z0.900000
G02 X17.599291 Y93.930555 Z0.900000 I-0.246757 J-5.428641
G02 X18.710320 Y93.533205 Z0.900000 I-1.532366 J-6.036592
G02 X19.712213 Y92.983107 Z0.900000 I-3.750204 J-8.017677
G02 X20.014184 Y92.703473 Z0.900000 I-0.616136 J-0.968213
G02 X20.419767 Y92.021015 Z0.900000 I-3.734249 J-2.681001
G02 X20.488317 Y91.721342 Z0.900000 I-0.620749 J-0.299673
G01 X20.514774 Y91.696999 Z0.900000
G02 X20.539117 Y91.111743 Z0.900000 I-7.023055 J-0.585256
G03 X20.482306 Y91.066954 Z0.900000 I-0.000000 J-0.058424
G03 X20.437517 Y90.688410 Z0.900000 I1.577264 J-0.378544
G03 X20.208468 Y90.026617 Z0.900000 I28.787489 J-10.333973
G03 X20.200451 Y89.977212 Z0.900000 I0.148214 J-0.049405
G01 X20.217381 Y89.977212 Z0.900000
G02 X19.958309 Y89.562359 Z0.900000 I-1.601377 J0.711725
G02 X19.421516 Y89.028947 Z0.900000 I-3.213371 J2.696935
G02 X19.310225 Y88.930467 Z0.900000 I-0.222001 J0.138757
G02 X18.913517 Y88.791881 Z0.900000 I-0.885241 J1.896946
G02 X18.802899 Y88.683256 Z0.900000 I-0.686318 J0.588274
G02 X18.524051 Y88.470148 Z0.900000 I-2.950169 J3.571254
G01 X18.524051 Y88.402418 Z0.900000
G01 X18.879650 Y88.199218 Z0.900000
G02 X19.160548 Y88.055251 Z0.900000 I-0.329892 J-0.989677
G02 X20.098848 Y87.318687 Z0.900000 I-8.723415 J-12.078586
G01 X20.149648 Y87.335617 Z0.900000
G02 X20.547928 Y86.737958 Z0.900000 I-4.389697 J-3.356830
G02 X20.725380 Y86.336552 Z0.900000 I-1.787908 J-1.030319
G03 X20.686387 Y86.324745 Z0.900000 I0.000000 J-0.070291
G01 X20.674580 Y86.302682 Z0.900000
G02 X20.751195 Y85.960349 Z0.900000 I-2.358831 J-0.707651
G02 X20.776180 Y85.625350 Z0.900000 I-2.233322 J-0.334999
G01 X20.776180 Y85.506817 Z0.900000
G02 X20.537180 Y84.362992 Z0.900000 I-2.856598 J-0.000000
G02 X19.895648 Y83.491754 Z0.900000 I-2.244093 J0.980612
G02 X19.598772 Y83.223831 Z0.900000 I-0.936750 J0.739537
G02 X18.642584 Y82.695889 Z0.900000 I-4.773563 J7.515823
G02 X17.647293 Y82.396742 Z0.900000 I-3.194057 J8.821661
G02 X16.746055 Y82.238690 Z0.900000 I-1.704326 J7.069797
G03 X16.578169 Y82.224795 Z0.900000 I-0.000000 J-1.021209
G03 X15.933256 Y82.103223 Z0.900000 I2.547929 J-15.287517
G01 X15.913070 Y82.072609 Z0.900000
G02 X15.814723 Y82.052423 Z0.900000 I-0.098347 J0.229475
G02 X15.636592 Y82.137406 Z0.900000 I0.046741 J0.327153
G02 X15.577657 Y82.272556 Z0.900000 I0.125497 J0.135150
G01 X15.577657 Y83.068421 Z0.900000
G01 X15.607227 Y83.092141 Z0.900000
G03 X15.679257 Y83.525620 Z0.900000 I-3.973333 J0.882965
G01 X15.679257 Y84.118290 Z0.900000
G02 X15.777250 Y84.285643 Z0.900000 I0.216549 J-0.014434
G02 X16.068723 Y84.372289 Z0.900000 I0.291473 J-0.446926
G01 X16.082910 Y84.391972 Z0.900000
G02 X16.170322 Y84.406159 Z0.900000 I0.087412 J-0.262209
G01 X16.170322 Y84.423089 Z0.900000
G01 X16.153392 Y84.473889 Z0.900000
G03 X16.655773 Y84.578976 Z0.900000 I-0.000000 J1.253385
G03 X17.237123 Y84.948022 Z0.900000 I-0.904264 J2.066886
G03 X17.343850 Y85.127436 Z0.900000 I-0.592040 J0.473634
G03 X17.372590 Y85.269754 Z0.900000 I-0.338002 J0.142318
G01 X17.372590 Y85.354424 Z0.900000
G03 X17.248208 Y85.725554 Z0.900000 I-0.615878 J0.000000
G03 X16.746058 Y86.184156 Z0.900000 I-1.483621 J-1.120284
G01 X16.762988 Y86.218026 Z0.900000
G01 X16.762988 Y86.251896 Z0.900000
G03 X16.386109 Y86.438050 Z0.900000 I-2.481931 J-4.550225
G03 X16.305789 Y86.455095 Z0.900000 I-0.080320 J-0.180720
G01 X16.271919 Y86.438165 Z0.900000
G02 X15.671973 Y86.773537 Z0.900000 I0.910424 J2.332958
G02 X15.577654 Y86.963097 Z0.900000 I0.143326 J0.189560
G01 X15.577654 Y88.233095 Z0.900000
G01 X15.616262 Y88.262217 Z0.900000
G03 X15.645384 Y88.470161 Z0.900000 I-0.727837 J0.207944
G01 X15.645384 Y89.401480 Z0.900000
G02 X15.717812 Y89.541108 Z0.900000 I0.170803 J-0.000000
G02 X16.390449 Y89.926412 Z0.900000 I2.389186 J-3.391103
G03 X16.779144 Y90.242175 Z0.900000 I-1.330640 J2.035097
G03 X16.830715 Y90.366678 Z0.900000 I-0.124503 J0.124503
G03 X17.109846 Y90.753951 Z0.900000 I-1.053677 J1.053677
G03 X17.186314 Y91.077876 Z0.900000 I-0.647850 J0.323925
G01 X17.186314 Y91.111746 Z0.900000
G03 X17.101519 Y91.347206 Z0.900000 I-0.369309 J0.000000
G03 X16.779915 Y91.602812 Z0.900000 I-0.766636 J-0.634457
G01 X16.779915 Y91.636682 Z0.900000
G03 X16.807318 Y91.643149 Z0.900000 I-0.000000 J0.061289
G01 X16.813785 Y91.653612 Z0.900000
G03 X16.541146 Y91.770731 Z0.900000 I-0.454045 J-0.681069
G03 X15.696187 Y91.907612 Z0.900000 I-1.509569 J-6.642090
G03 X15.641179 Y92.002403 Z0.900000 I-0.788924 J-0.394462
G01 X15.628457 Y92.009212 Z0.900000
G01 X15.645387 Y92.127745 Z0.900000
G01 X15.645387 Y92.415611 Z0.900000
G03 X15.642566 Y92.652627 Z0.900000 I-9.959424 J-0.000000
G03 X15.628457 Y93.126810 Z0.900000 I-39.881599 J-0.949376
G01 X15.577657 Y93.092940 Z0.900000
G01 X15.577657 Y93.854938 Z0.900000
G02 X15.661214 Y94.086929 Z0.900000 I0.540345 J-0.063576
G02 X15.763923 Y94.142805 Z0.900000 I0.102709 J-0.066458
G01 X15.763922 Y94.142804 Z0.900000
G00 Z12.000000

(End cutting path id: path1000)


(Start cutting path id: path1000)
(Change tool to Cylindrical cutter)

G00 Z12.000000
G00 X14.646324 Y94.142804

G01 Z-2.000000 F400.0(Penetrate)
G02 X14.772665 Y94.049012 Z-2.000000 I0.000000 J-0.131988 F400.000000
G02 X14.866457 Y93.414672 Z-2.000000 I-2.098200 J-0.634340
G01 X14.866457 Y93.059072 Z-2.000000
G02 X14.754848 Y91.971159 Z-2.000000 I-9.400749 J0.414740
G02 X14.680191 Y91.907608 Z-2.000000 I-0.074657 J0.012077
G01 X13.748859 Y91.636675 Z-2.000000
G01 X13.698059 Y91.653605 Z-2.000000
G03 X13.371491 Y91.377659 Z-2.000000 I0.336864 J-0.729873
G03 X13.257794 Y91.010140 Z-2.000000 I0.537144 J-0.367519
G03 X13.441777 Y90.571106 Z-2.000000 I0.615820 J0.000000
G03 X14.290725 Y89.994142 Z-2.000000 I2.007864 J2.041328
G02 X14.747899 Y89.763991 Z-2.000000 I-1.322821 J-3.196812
G02 X14.798724 Y89.689343 Z-2.000000 I-0.055413 J-0.092355
G03 X14.823940 Y89.032735 Z-2.000000 I8.561521 J-0.000000
G03 X14.866454 Y88.808811 Z-2.000000 I1.027071 J0.079002
G01 X14.866454 Y87.200148 Z-2.000000
G02 X14.748774 Y86.955299 Z-2.000000 I-0.313560 J0.000000
G02 X14.273789 Y86.726015 Z-2.000000 I-0.738351 J0.922936
G03 X13.337203 Y86.006082 Z-2.000000 I1.330424 J-2.699979
G03 X13.105391 Y85.388284 Z-2.000000 I0.707334 J-0.617798
G01 X13.105391 Y85.269751 Z-2.000000
G03 X13.336106 Y84.861513 Z-2.000000 I0.476536 J0.000000
G03 X14.680188 Y84.321487 Z-2.000000 I2.345637 J3.895437
G02 X14.768132 Y84.181389 Z-2.000000 I-0.189575 J-0.216654
G02 X14.815654 Y83.830421 Z-2.000000 I-1.272265 J-0.350968
G03 X14.802629 Y83.474729 Z-2.000000 I16.202294 J-0.771388
G03 X14.798724 Y83.170022 Z-2.000000 I11.885898 J-0.304707
G01 X14.798724 Y82.170957 Z-2.000000
G02 X14.783845 Y82.135036 Z-2.000000 I-0.050800 J0.000000
G02 X14.747924 Y82.120157 Z-2.000000 I-0.035921 J0.035921
G01 X14.087525 Y82.120157 Z-2.000000
G03 X14.051604 Y82.105278 Z-2.000000 I-0.000000 J-0.050800
G03 X14.036725 Y82.069357 Z-2.000000 I0.035921 J-0.035921
G02 X13.821878 Y82.122497 Z-2.000000 I0.155900 J1.091186
G01 X13.799659 Y82.154027 Z-2.000000
G02 X13.747729 Y82.123887 Z-2.000000 I-0.268046 J0.402029
G01 X13.731929 Y82.120157 Z-2.000000
G02 X13.034393 Y82.200807 Z-2.000000 I-0.000000 J3.056803
G02 X11.564467 Y82.628156 Z-2.000000 I3.315096 J14.144408
G02 X10.673015 Y83.179050 Z-2.000000 I26.193268 J43.382474
G02 X10.412999 Y83.356291 Z-2.000000 I2.442243 J3.862145
G02 X9.846724 Y84.215037 Z-2.000000 I1.932256 J1.890250
G02 X9.651001 Y85.202021 Z-2.000000 I2.390694 J0.986984
G01 X9.651001 Y85.252821 Z-2.000000
G02 X9.699047 Y85.614012 Z-2.000000 I1.381673 J-0.000000
G02 X9.871134 Y86.065619 Z-2.000000 I2.346105 J-0.635404
G01 X9.882340 Y86.073433 Z-2.000000
G03 X9.989667 Y86.387352 Z-2.000000 I-6.608547 J2.434726
G02 X10.299378 Y86.952203 Z-2.000000 I4.029412 J-1.842015
G02 X10.548466 Y87.250950 Z-2.000000 I1.356149 J-0.877508
G01 X10.599266 Y87.217080 Z-2.000000
G01 X11.259664 Y87.725079 Z-2.000000
G02 X11.307907 Y87.812797 Z-2.000000 I0.103869 J0.000000
G02 X11.953930 Y88.165345 Z-2.000000 I3.006342 J-4.740771
G01 X11.953930 Y88.199215 Z-2.000000
G02 X11.511423 Y88.420416 Z-2.000000 I0.691926 J1.937394
G02 X10.954865 Y88.859614 Z-2.000000 I2.329901 J3.524721
G01 X10.966839 Y88.864573 Z-2.000000
G01 X10.971798 Y88.876544 Z-2.000000
G02 X10.406722 Y89.548000 Z-2.000000 I5.420891 J5.135550
G02 X10.226733 Y89.875612 Z-2.000000 I1.085997 J0.809893
G01 X10.192866 Y89.875612 Z-2.000000
G01 X10.142066 Y89.858682 Z-2.000000
G02 X10.017352 Y90.286843 Z-2.000000 I3.379378 J1.216582
G02 X9.989667 Y90.536011 Z-2.000000 I1.107414 J0.249168
G01 X9.989667 Y91.281076 Z-2.000000
G02 X10.158678 Y91.923142 Z-2.000000 I1.304092 J0.000000
G02 X10.937932 Y92.957473 Z-2.000000 I4.318422 J-2.442743
G02 X11.499546 Y93.329713 Z-2.000000 I3.476358 J-4.635146
G02 X12.072463 Y93.617871 Z-2.000000 I2.640557 J-4.536347
G02 X13.480344 Y94.016657 Z-2.000000 I3.368030 J-9.205945
G02 X14.561658 Y94.125870 Z-2.000000 I1.081314 J-5.298440
G01 X14.569285 Y94.135173 Z-2.000000
G02 X14.646328 Y94.142800 Z-2.000000 I0.077043 J-0.385306
G01 X14.646324 Y94.142804 Z-2.000000
G00 Z12.000000

(Change tool to Cylindrical cutter)

G00 Z12.000000
G00 X15.763922 Y94.142804

G01 Z-2.000000 F400.0(Penetrate)
G02 X16.152301 Y94.128951 Z-2.000000 I0.000000 J-5.451152 F400.000000
G02 X16.475121 Y94.092004 Z-2.000000 I-0.271497 J-3.800948
G01 X16.458191 Y94.041204 Z-2.000000
G01 X16.508991 Y94.041204 Z-2.000000
G01 X16.508991 Y94.092004 Z-2.000000
G02 X17.599291 Y93.930555 Z-2.000000 I-0.246757 J-5.428641
G02 X18.710320 Y93.533205 Z-2.000000 I-1.532366 J-6.036592
G02 X19.712213 Y92.983107 Z-2.000000 I-3.750204 J-8.017677
G02 X20.014184 Y92.703473 Z-2.000000 I-0.616136 J-0.968213
G02 X20.419767 Y92.021015 Z-2.000000 I-3.734249 J-2.681001
G02 X20.488317 Y91.721342 Z-2.000000 I-0.620749 J-0.299673
G01 X20.514774 Y91.696999 Z-2.000000
G02 X20.539117 Y91.111743 Z-2.000000 I-7.023055 J-0.585256
G03 X20.482306 Y91.066954 Z-2.000000 I-0.000000 J-0.058424
G03 X20.437517 Y90.688410 Z-2.000000 I1.577264 J-0.378544
G03 X20.208468 Y90.026617 Z-2.000000 I28.787489 J-10.333973
G03 X20.200451 Y89.977212 Z-2.000000 I0.148214 J-0.049405
G01 X20.217381 Y89.977212 Z-2.000000
G02 X19.958309 Y89.562359 Z-2.000000 I-1.601377 J0.711725
G02 X19.421516 Y89.028947 Z-2.000000 I-3.213371 J2.696935
G02 X19.310225 Y88.930467 Z-2.000000 I-0.222001 J0.138757
G02 X18.913517 Y88.791881 Z-2.000000 I-0.885241 J1.896946
G02 X18.802899 Y88.683256 Z-2.000000 I-0.686318 J0.588274
G02 X18.524051 Y88.470148 Z-2.000000 I-2.950169 J3.571254
G01 X18.524051 Y88.402418 Z-2.000000
G01 X18.879650 Y88.199218 Z-2.000000
G02 X19.160548 Y88.055251 Z-2.000000 I-0.329892 J-0.989677
G02 X20.098848 Y87.318687 Z-2.000000 I-8.723415 J-12.078586
G01 X20.149648 Y87.335617 Z-2.000000
G02 X20.547928 Y86.737958 Z-2.000000 I-4.389697 J-3.356830
G02 X20.725380 Y86.336552 Z-2.000000 I-1.787908 J-1.030319
G03 X20.686387 Y86.324745 Z-2.000000 I0.000000 J-0.070291
G01 X20.674580 Y86.302682 Z-2.000000
G02 X20.751195 Y85.960349 Z-2.000000 I-2.358831 J-0.707651
G02 X20.776180 Y85.625350 Z-2.000000 I-2.233322 J-0.334999
G01 X20.776180 Y85.506817 Z-2.000000
G02 X20.537180 Y84.362992 Z-2.000000 I-2.856598 J-0.000000
G02 X19.895648 Y83.491754 Z-2.000000 I-2.244093 J0.980612
G02 X19.598772 Y83.223831 Z-2.000000 I-0.936750 J0.739537
G02 X18.642584 Y82.695889 Z-2.000000 I-4.773563 J7.515823
G02 X17.647293 Y82.396742 Z-2.000000 I-3.194057 J8.821661
G02 X16.746055 Y82.238690 Z-2.000000 I-1.704326 J7.069797
G03 X16.578169 Y82.224795 Z-2.000000 I-0.000000 J-1.021209
G03 X15.933256 Y82.103223 Z-2.000000 I2.547929 J-15.287517
G01 X15.913070 Y82.072609 Z-2.000000
G02 X15.814723 Y82.052423 Z-2.000000 I-0.098347 J0.229475
G02 X15.636592 Y82.137406 Z-2.000000 I0.046741 J0.327153
G02 X15.577657 Y82.272556 Z-2.000000 I0.125497 J0.135150
G01 X15.577657 Y83.068421 Z-2.000000
G01 X15.607227 Y83.092141 Z-2.000000
G03 X15.679257 Y83.525620 Z-2.000000 I-3.973333 J0.882965
G01 X15.679257 Y84.118290 Z-2.000000
G02 X15.777250 Y84.285643 Z-2.000000 I0.216549 J-0.014434
G02 X16.068723 Y84.372289 Z-2.000000 I0.291473 J-0.446926
G01 X16.082910 Y84.391972 Z-2.000000
G02 X16.170322 Y84.406159 Z-2.000000 I0.087412 J-0.262209
G01 X16.170322 Y84.423089 Z-2.000000
G01 X16.153392 Y84.473889 Z-2.000000
G03 X16.655773 Y84.578976 Z-2.000000 I-0.000000 J1.253385
G03 X17.237123 Y84.948022 Z-2.000000 I-0.904264 J2.066886
G03 X17.343850 Y85.127436 Z-2.000000 I-0.592040 J0.473634
G03 X17.372590 Y85.269754 Z-2.000000 I-0.338002 J0.142318
G01 X17.372590 Y85.354424 Z-2.000000
G03 X17.248208 Y85.725554 Z-2.000000 I-0.615878 J0.000000
G03 X16.746058 Y86.184156 Z-2.000000 I-1.483621 J-1.120284
G01 X16.762988 Y86.218026 Z-2.000000
G01 X16.762988 Y86.251896 Z-2.000000
G03 X16.386109 Y86.438050 Z-2.000000 I-2.481931 J-4.550225
G03 X16.305789 Y86.455095 Z-2.000000 I-0.080320 J-0.180720
G01 X16.271919 Y86.438165 Z-2.000000
G02 X15.671973 Y86.773537 Z-2.000000 I0.910424 J2.332958
G02 X15.577654 Y86.963097 Z-2.000000 I0.143326 J0.189560
G01 X15.577654 Y88.233095 Z-2.000000
G01 X15.616262 Y88.262217 Z-2.000000
G03 X15.645384 Y88.470161 Z-2.000000 I-0.727837 J0.207944
G01 X15.645384 Y89.401480 Z-2.000000
G02 X15.717812 Y89.541108 Z-2.000000 I0.170803 J-0.000000
G02 X16.390449 Y89.926412 Z-2.000000 I2.389186 J-3.391103
G03 X16.779144 Y90.242175 Z-2.000000 I-1.330640 J2.035097
G03 X16.830715 Y90.366678 Z-2.000000 I-0.124503 J0.124503
G03 X17.109846 Y90.753951 Z-2.000000 I-1.053677 J1.053677
G03 X17.186314 Y91.077876 Z-2.000000 I-0.647850 J0.323925
G01 X17.186314 Y91.111746 Z-2.000000
G03 X17.101519 Y91.347206 Z-2.000000 I-0.369309 J0.000000
G03 X16.779915 Y91.602812 Z-2.000000 I-0.766636 J-0.634457
G01 X16.779915 Y91.636682 Z-2.000000
G03 X16.807318 Y91.643149 Z-2.000000 I-0.000000 J0.061289
G01 X16.813785 Y91.653612 Z-2.000000
G03 X16.541146 Y91.770731 Z-2.000000 I-0.454045 J-0.681069
G03 X15.696187 Y91.907612 Z-2.000000 I-1.509569 J-6.642090
G03 X15.641179 Y92.002403 Z-2.000000 I-0.788924 J-0.394462
G01 X15.628457 Y92.009212 Z-2.000000
G01 X15.645387 Y92.127745 Z-2.000000
G01 X15.645387 Y92.415611 Z-2.000000
G03 X15.642566 Y92.652627 Z-2.000000 I-9.959424 J-0.000000
G03 X15.628457 Y93.126810 Z-2.000000 I-39.881599 J-0.949376
G01 X15.577657 Y93.092940 Z-2.000000
G01 X15.577657 Y93.854938 Z-2.000000
G02 X15.661214 Y94.086929 Z-2.000000 I0.540345 J-0.063576
G02 X15.763923 Y94.142805 Z-2.000000 I0.102709 J-0.066458
G01 X15.763922 Y94.142804 Z-2.000000
G00 Z12.000000

(End cutting path id: path1000)


(Start cutting path id: path1000)
(Change tool to Cylindrical cutter)

G00 Z12.000000
G00 X14.646324 Y94.142804

G01 Z-2.000000 F400.0(Penetrate)
G02 X14.772665 Y94.049012 Z-2.000000 I0.000000 J-0.131988 F400.000000
G02 X14.866457 Y93.414672 Z-2.000000 I-2.098200 J-0.634340
G01 X14.866457 Y93.059072 Z-2.000000
G02 X14.754848 Y91.971159 Z-2.000000 I-9.400749 J0.414740
G02 X14.680191 Y91.907608 Z-2.000000 I-0.074657 J0.012077
G01 X13.748859 Y91.636675 Z-2.000000
G01 X13.698059 Y91.653605 Z-2.000000
G03 X13.371491 Y91.377659 Z-2.000000 I0.336864 J-0.729873
G03 X13.257794 Y91.010140 Z-2.000000 I0.537144 J-0.367519
G03 X13.441777 Y90.571106 Z-2.000000 I0.615820 J0.000000
G03 X14.290725 Y89.994142 Z-2.000000 I2.007864 J2.041328
G02 X14.747899 Y89.763991 Z-2.000000 I-1.322821 J-3.196812
G02 X14.798724 Y89.689343 Z-2.000000 I-0.055413 J-0.092355
G03 X14.823940 Y89.032735 Z-2.000000 I8.561521 J-0.000000
G03 X14.866454 Y88.808811 Z-2.000000 I1.027071 J0.079002
G01 X14.866454 Y87.200148 Z-2.000000
G02 X14.748774 Y86.955299 Z-2.000000 I-0.313560 J0.000000
G02 X14.273789 Y86.726015 Z-2.000000 I-0.738351 J0.922936
G03 X13.337203 Y86.006082 Z-2.000000 I1.330424 J-2.699979
G03 X13.105391 Y85.388284 Z-2.000000 I0.707334 J-0.617798
G01 X13.105391 Y85.269751 Z-2.000000
G03 X13.336106 Y84.861513 Z-2.000000 I0.476536 J0.000000
G03 X14.680188 Y84.321487 Z-2.000000 I2.345637 J3.895437
G02 X14.768132 Y84.181389 Z-2.000000 I-0.189575 J-0.216654
G02 X14.815654 Y83.830421 Z-2.000000 I-1.272265 J-0.350968
G03 X14.802629 Y83.474729 Z-2.000000 I16.202294 J-0.771388
G03 X14.798724 Y83.170022 Z-2.000000 I11.885898 J-0.304707
G01 X14.798724 Y82.170957 Z-2.000000
G02 X14.783845 Y82.135036 Z-2.000000 I-0.050800 J0.000000
G02 X14.747924 Y82.120157 Z-2.000000 I-0.035921 J0.035921
G01 X14.087525 Y82.120157 Z-2.000000
G03 X14.051604 Y82.105278 Z-2.000000 I-0.000000 J-0.050800
G03 X14.036725 Y82.069357 Z-2.000000 I0.035921 J-0.035921
G02 X13.821878 Y82.122497 Z-2.000000 I0.155900 J1.091186
G01 X13.799659 Y82.154027 Z-2.000000
G02 X13.747729 Y82.123887 Z-2.000000 I-0.268046 J0.402029
G01 X13.731929 Y82.120157 Z-2.000000
G02 X13.034393 Y82.200807 Z-2.000000 I-0.000000 J3.056803
G02 X11.564467 Y82.628156 Z-2.000000 I3.315096 J14.144408
G02 X10.673015 Y83.179050 Z-2.000000 I26.193268 J43.382474
G02 X10.412999 Y83.356291 Z-2.000000 I2.442243 J3.862145
G02 X9.846724 Y84.215037 Z-2.000000 I1.932256 J1.890250
G02 X9.651001 Y85.202021 Z-2.000000 I2.390694 J0.986984
G01 X9.651001 Y85.252821 Z-2.000000
G02 X9.699047 Y85.614012 Z-2.000000 I1.381673 J-0.000000
G02 X9.871134 Y86.065619 Z-2.000000 I2.346105 J-0.635404
G01 X9.882340 Y86.073433 Z-2.000000
G03 X9.989667 Y86.387352 Z-2.000000 I-6.608547 J2.434726
G02 X10.299378 Y86.952203 Z-2.000000 I4.029412 J-1.842015
G02 X10.548466 Y87.250950 Z-2.000000 I1.356149 J-0.877508
G01 X10.599266 Y87.217080 Z-2.000000
G01 X11.259664 Y87.725079 Z-2.000000
G02 X11.307907 Y87.812797 Z-2.000000 I0.103869 J0.000000
G02 X11.953930 Y88.165345 Z-2.000000 I3.006342 J-4.740771
G01 X11.953930 Y88.199215 Z-2.000000
G02 X11.511423 Y88.420416 Z-2.000000 I0.691926 J1.937394
G02 X10.954865 Y88.859614 Z-2.000000 I2.329901 J3.524721
G01 X10.966839 Y88.864573 Z-2.000000
G01 X10.971798 Y88.876544 Z-2.000000
G02 X10.406722 Y89.548000 Z-2.000000 I5.420891 J5.135550
G02 X10.226733 Y89.875612 Z-2.000000 I1.085997 J0.809893
G01 X10.192866 Y89.875612 Z-2.000000
G01 X10.142066 Y89.858682 Z-2.000000
G02 X10.017352 Y90.286843 Z-2.000000 I3.379378 J1.216582
G02 X9.989667 Y90.536011 Z-2.000000 I1.107414 J0.249168
G01 X9.989667 Y91.281076 Z-2.000000
G02 X10.158678 Y91.923142 Z-2.000000 I1.304092 J0.000000
G02 X10.937932 Y92.957473 Z-2.000000 I4.318422 J-2.442743
G02 X11.499546 Y93.329713 Z-2.000000 I3.476358 J-4.635146
G02 X12.072463 Y93.617871 Z-2.000000 I2.640557 J-4.536347
G02 X13.480344 Y94.016657 Z-2.000000 I3.368030 J-9.205945
G02 X14.561658 Y94.125870 Z-2.000000 I1.081314 J-5.298440
G01 X14.569285 Y94.135173 Z-2.000000
G02 X14.646328 Y94.142800 Z-2.000000 I0.077043 J-0.385306
G01 X14.646324 Y94.142804 Z-2.000000
G00 Z12.000000

(Change tool to Cylindrical cutter)

G00 Z12.000000
G00 X15.763922 Y94.142804

G01 Z-2.000000 F400.0(Penetrate)
G02 X16.152301 Y94.128951 Z-2.000000 I0.000000 J-5.451152 F400.000000
G02 X16.475121 Y94.092004 Z-2.000000 I-0.271497 J-3.800948
G01 X16.458191 Y94.041204 Z-2.000000
G01 X16.508991 Y94.041204 Z-2.000000
G01 X16.508991 Y94.092004 Z-2.000000
G02 X17.599291 Y93.930555 Z-2.000000 I-0.246757 J-5.428641
G02 X18.710320 Y93.533205 Z-2.000000 I-1.532366 J-6.036592
G02 X19.712213 Y92.983107 Z-2.000000 I-3.750204 J-8.017677
G02 X20.014184 Y92.703473 Z-2.000000 I-0.616136 J-0.968213
G02 X20.419767 Y92.021015 Z-2.000000 I-3.734249 J-2.681001
G02 X20.488317 Y91.721342 Z-2.000000 I-0.620749 J-0.299673
G01 X20.514774 Y91.696999 Z-2.000000
G02 X20.539117 Y91.111743 Z-2.000000 I-7.023055 J-0.585256
G03 X20.482306 Y91.066954 Z-2.000000 I-0.000000 J-0.058424
G03 X20.437517 Y90.688410 Z-2.000000 I1.577264 J-0.378544
G03 X20.208468 Y90.026617 Z-2.000000 I28.787489 J-10.333973
G03 X20.200451 Y89.977212 Z-2.000000 I0.148214 J-0.049405
G01 X20.217381 Y89.977212 Z-2.000000
G02 X19.958309 Y89.562359 Z-2.000000 I-1.601377 J0.711725
G02 X19.421516 Y89.028947 Z-2.000000 I-3.213371 J2.696935
G02 X19.310225 Y88.930467 Z-2.000000 I-0.222001 J0.138757
G02 X18.913517 Y88.791881 Z-2.000000 I-0.885241 J1.896946
G02 X18.802899 Y88.683256 Z-2.000000 I-0.686318 J0.588274
G02 X18.524051 Y88.470148 Z-2.000000 I-2.950169 J3.571254
G01 X18.524051 Y88.402418 Z-2.000000
G01 X18.879650 Y88.199218 Z-2.000000
G02 X19.160548 Y88.055251 Z-2.000000 I-0.329892 J-0.989677
G02 X20.098848 Y87.318687 Z-2.000000 I-8.723415 J-12.078586
G01 X20.149648 Y87.335617 Z-2.000000
G02 X20.547928 Y86.737958 Z-2.000000 I-4.389697 J-3.356830
G02 X20.725380 Y86.336552 Z-2.000000 I-1.787908 J-1.030319
G03 X20.686387 Y86.324745 Z-2.000000 I0.000000 J-0.070291
G01 X20.674580 Y86.302682 Z-2.000000
G02 X20.751195 Y85.960349 Z-2.000000 I-2.358831 J-0.707651
G02 X20.776180 Y85.625350 Z-2.000000 I-2.233322 J-0.334999
G01 X20.776180 Y85.506817 Z-2.000000
G02 X20.537180 Y84.362992 Z-2.000000 I-2.856598 J-0.000000
G02 X19.895648 Y83.491754 Z-2.000000 I-2.244093 J0.980612
G02 X19.598772 Y83.223831 Z-2.000000 I-0.936750 J0.739537
G02 X18.642584 Y82.695889 Z-2.000000 I-4.773563 J7.515823
G02 X17.647293 Y82.396742 Z-2.000000 I-3.194057 J8.821661
G02 X16.746055 Y82.238690 Z-2.000000 I-1.704326 J7.069797
G03 X16.578169 Y82.224795 Z-2.000000 I-0.000000 J-1.021209
G03 X15.933256 Y82.103223 Z-2.000000 I2.547929 J-15.287517
G01 X15.913070 Y82.072609 Z-2.000000
G02 X15.814723 Y82.052423 Z-2.000000 I-0.098347 J0.229475
G02 X15.636592 Y82.137406 Z-2.000000 I0.046741 J0.327153
G02 X15.577657 Y82.272556 Z-2.000000 I0.125497 J0.135150
G01 X15.577657 Y83.068421 Z-2.000000
G01 X15.607227 Y83.092141 Z-2.000000
G03 X15.679257 Y83.525620 Z-2.000000 I-3.973333 J0.882965
G01 X15.679257 Y84.118290 Z-2.000000
G02 X15.777250 Y84.285643 Z-2.000000 I0.216549 J-0.014434
G02 X16.068723 Y84.372289 Z-2.000000 I0.291473 J-0.446926
G01 X16.082910 Y84.391972 Z-2.000000
G02 X16.170322 Y84.406159 Z-2.000000 I0.087412 J-0.262209
G01 X16.170322 Y84.423089 Z-2.000000
G01 X16.153392 Y84.473889 Z-2.000000
G03 X16.655773 Y84.578976 Z-2.000000 I-0.000000 J1.253385
G03 X17.237123 Y84.948022 Z-2.000000 I-0.904264 J2.066886
G03 X17.343850 Y85.127436 Z-2.000000 I-0.592040 J0.473634
G03 X17.372590 Y85.269754 Z-2.000000 I-0.338002 J0.142318
G01 X17.372590 Y85.354424 Z-2.000000
G03 X17.248208 Y85.725554 Z-2.000000 I-0.615878 J0.000000
G03 X16.746058 Y86.184156 Z-2.000000 I-1.483621 J-1.120284
G01 X16.762988 Y86.218026 Z-2.000000
G01 X16.762988 Y86.251896 Z-2.000000
G03 X16.386109 Y86.438050 Z-2.000000 I-2.481931 J-4.550225
G03 X16.305789 Y86.455095 Z-2.000000 I-0.080320 J-0.180720
G01 X16.271919 Y86.438165 Z-2.000000
G02 X15.671973 Y86.773537 Z-2.000000 I0.910424 J2.332958
G02 X15.577654 Y86.963097 Z-2.000000 I0.143326 J0.189560
G01 X15.577654 Y88.233095 Z-2.000000
G01 X15.616262 Y88.262217 Z-2.000000
G03 X15.645384 Y88.470161 Z-2.000000 I-0.727837 J0.207944
G01 X15.645384 Y89.401480 Z-2.000000
G02 X15.717812 Y89.541108 Z-2.000000 I0.170803 J-0.000000
G02 X16.390449 Y89.926412 Z-2.000000 I2.389186 J-3.391103
G03 X16.779144 Y90.242175 Z-2.000000 I-1.330640 J2.035097
G03 X16.830715 Y90.366678 Z-2.000000 I-0.124503 J0.124503
G03 X17.109846 Y90.753951 Z-2.000000 I-1.053677 J1.053677
G03 X17.186314 Y91.077876 Z-2.000000 I-0.647850 J0.323925
G01 X17.186314 Y91.111746 Z-2.000000
G03 X17.101519 Y91.347206 Z-2.000000 I-0.369309 J0.000000
G03 X16.779915 Y91.602812 Z-2.000000 I-0.766636 J-0.634457
G01 X16.779915 Y91.636682 Z-2.000000
G03 X16.807318 Y91.643149 Z-2.000000 I-0.000000 J0.061289
G01 X16.813785 Y91.653612 Z-2.000000
G03 X16.541146 Y91.770731 Z-2.000000 I-0.454045 J-0.681069
G03 X15.696187 Y91.907612 Z-2.000000 I-1.509569 J-6.642090
G03 X15.641179 Y92.002403 Z-2.000000 I-0.788924 J-0.394462
G01 X15.628457 Y92.009212 Z-2.000000
G01 X15.645387 Y92.127745 Z-2.000000
G01 X15.645387 Y92.415611 Z-2.000000
G03 X15.642566 Y92.652627 Z-2.000000 I-9.959424 J-0.000000
G03 X15.628457 Y93.126810 Z-2.000000 I-39.881599 J-0.949376
G01 X15.577657 Y93.092940 Z-2.000000
G01 X15.577657 Y93.854938 Z-2.000000
G02 X15.661214 Y94.086929 Z-2.000000 I0.540345 J-0.063576
G02 X15.763923 Y94.142805 Z-2.000000 I0.102709 J-0.066458
G01 X15.763922 Y94.142804 Z-2.000000
G00 Z12.000000

(End cutting path id: path1000)


(Footer)
M5
G00 X0.0000 Y0.0000
M2
(Using default footer. To add your own footer create file "footer" in the output dir.)
(end)
%