%
(Header)
(Generated by gcodetools from Inkscape.)
(Using default header. To add your own header create file "header" in the output dir.)
M3
(Header end.)
G21 (All units in mm)

(Start cutting path id: path44692)
(Change tool to Cylindrical cutter)

G00 Z8.000000
G00 X93.653126 Y101.035791

G01 Z-3.100000 F400.0(Penetrate)
G02 X122.408548 Y99.293453 Z-3.100000 I0.115759 J-236.249467 F400.000000
G02 X125.936170 Y97.738007 Z-3.100000 I-0.807039 J-6.608196
G02 X129.715145 Y91.989084 Z-3.100000 I-8.098120 J-9.439678
G02 X133.948356 Y76.231998 Z-3.100000 I-200.687608 J-62.362792
G02 X135.821685 Y67.310103 Z-3.100000 I-266.714923 J-60.659709
G02 X137.307460 Y58.717780 Z-3.100000 I-224.487747 J-43.242790
G02 X146.957620 Y56.581523 Z-3.100000 I-59.561847 J-291.924550
G02 X156.618510 Y54.108246 Z-3.100000 I-71.584423 J-299.721518
G02 X173.695815 Y48.692200 Z-3.100000 I-58.611056 J-214.437395
G02 X176.000000 Y45.467530 Z-3.100000 I-1.189787 J-3.285723
G02 X176.069353 Y36.801897 Z-3.100000 I-457.708972 J-7.996218
G02 X176.000000 Y0.786030 Z-3.100000 I-38869.009507 J56.838646
G01 X0.431109 Y0.786030 Z-3.100000
G02 X0.684004 Y34.122771 Z-3.100000 I2217.732059 J-0.154568
G02 X2.721012 Y38.955870 Z-3.100000 I7.003075 J-0.105770
G02 X5.261987 Y39.758971 Z-3.100000 I2.038007 J-2.026845
G03 X18.260427 Y38.037274 Z-3.100000 I25.959993 J146.063735
G03 X28.751247 Y38.306698 Z-3.100000 I4.060014 J46.291594
G03 X32.035408 Y42.109530 Z-3.100000 I-0.527504 J3.775090
G03 X28.732414 Y46.563073 Z-3.100000 I-4.699993 J-0.034162
G03 X18.313697 Y48.672224 Z-3.100000 I-15.507648 J-49.816602
G03 X5.764682 Y49.423623 Z-3.100000 I-16.186276 J-165.159344
G02 X3.512379 Y50.877560 Z-3.100000 I0.056087 J2.558381
G02 X2.956407 Y55.803014 Z-3.100000 I6.822475 J3.264209
G02 X4.636092 Y59.774580 Z-3.100000 I11.836294 J-2.664921
G02 X6.668305 Y60.540118 Z-3.100000 I1.539133 J-1.005668
G03 X19.156824 Y57.647262 Z-3.100000 I39.182749 J140.749707
G03 X29.490883 Y56.898390 Z-3.100000 I8.514243 J45.815434
G03 X33.229118 Y60.376427 Z-3.100000 I-0.152900 J3.912307
G03 X30.559992 Y65.063107 Z-3.100000 I-4.556320 J0.508508
G03 X21.012410 Y68.029803 Z-3.100000 I-16.774582 J-37.138259
G03 X8.965554 Y69.598129 Z-3.100000 I-22.069267 J-122.469489
G02 X5.089688 Y70.915645 Z-3.100000 I0.674115 J8.342874
G02 X3.268196 Y74.133601 Z-3.100000 I2.172283 J3.354095
G02 X3.390997 Y86.907564 Z-3.100000 I146.164113 J4.982441
G02 X3.898474 Y94.026607 Z-3.100000 I199.500320 J-10.643640
G02 X4.652290 Y100.982446 Z-3.100000 I184.143689 J-16.437205
G01 X93.653126 Y101.035796 Z-3.100000
G01 X93.653126 Y101.035791 Z-3.100000
G00 Z8.000000

(End cutting path id: path44692)


(Start cutting path id: path44692)
(Change tool to Cylindrical cutter)

G00 Z8.000000
G00 X93.653126 Y101.035791

G01 Z-6.000000 F400.0(Penetrate)
G02 X122.408548 Y99.293453 Z-6.000000 I0.115759 J-236.249467 F400.000000
G02 X125.936170 Y97.738007 Z-6.000000 I-0.807039 J-6.608196
G02 X129.715145 Y91.989084 Z-6.000000 I-8.098120 J-9.439678
G02 X133.948356 Y76.231998 Z-6.000000 I-200.687608 J-62.362792
G02 X135.821685 Y67.310103 Z-6.000000 I-266.714923 J-60.659709
G02 X137.307460 Y58.717780 Z-6.000000 I-224.487747 J-43.242790
G02 X146.957620 Y56.581523 Z-6.000000 I-59.561847 J-291.924550
G02 X156.618510 Y54.108246 Z-6.000000 I-71.584423 J-299.721518
G02 X173.695815 Y48.692200 Z-6.000000 I-58.611056 J-214.437395
G02 X176.000000 Y45.467530 Z-6.000000 I-1.189787 J-3.285723
G02 X176.069353 Y36.801897 Z-6.000000 I-457.708972 J-7.996218
G02 X176.000000 Y0.786030 Z-6.000000 I-38869.009507 J56.838646
G01 X0.431109 Y0.786030 Z-6.000000
G02 X0.684004 Y34.122771 Z-6.000000 I2217.732059 J-0.154568
G02 X2.721012 Y38.955870 Z-6.000000 I7.003075 J-0.105770
G02 X5.261987 Y39.758971 Z-6.000000 I2.038007 J-2.026845
G03 X18.260427 Y38.037274 Z-6.000000 I25.959993 J146.063735
G03 X28.751247 Y38.306698 Z-6.000000 I4.060014 J46.291594
G03 X32.035408 Y42.109530 Z-6.000000 I-0.527504 J3.775090
G03 X28.732414 Y46.563073 Z-6.000000 I-4.699993 J-0.034162
G03 X18.313697 Y48.672224 Z-6.000000 I-15.507648 J-49.816602
G03 X5.764682 Y49.423623 Z-6.000000 I-16.186276 J-165.159344
G02 X3.512379 Y50.877560 Z-6.000000 I0.056087 J2.558381
G02 X2.956407 Y55.803014 Z-6.000000 I6.822475 J3.264209
G02 X4.636092 Y59.774580 Z-6.000000 I11.836294 J-2.664921
G02 X6.668305 Y60.540118 Z-6.000000 I1.539133 J-1.005668
G03 X19.156824 Y57.647262 Z-6.000000 I39.182749 J140.749707
G03 X29.490883 Y56.898390 Z-6.000000 I8.514243 J45.815434
G03 X33.229118 Y60.376427 Z-6.000000 I-0.152900 J3.912307
G03 X30.559992 Y65.063107 Z-6.000000 I-4.556320 J0.508508
G03 X21.012410 Y68.029803 Z-6.000000 I-16.774582 J-37.138259
G03 X8.965554 Y69.598129 Z-6.000000 I-22.069267 J-122.469489
G02 X5.089688 Y70.915645 Z-6.000000 I0.674115 J8.342874
G02 X3.268196 Y74.133601 Z-6.000000 I2.172283 J3.354095
G02 X3.390997 Y86.907564 Z-6.000000 I146.164113 J4.982441
G02 X3.898474 Y94.026607 Z-6.000000 I199.500320 J-10.643640
G02 X4.652290 Y100.982446 Z-6.000000 I184.143689 J-16.437205
G01 X93.653126 Y101.035796 Z-6.000000
G01 X93.653126 Y101.035791 Z-6.000000
G00 Z8.000000

(End cutting path id: path44692)


(Start cutting path id: path44692)
(Change tool to Cylindrical cutter)

G00 Z8.000000
G00 X93.653126 Y101.035791

G01 Z-6.000000 F400.0(Penetrate)
G02 X122.408548 Y99.293453 Z-6.000000 I0.115759 J-236.249467 F400.000000
G02 X125.936170 Y97.738007 Z-6.000000 I-0.807039 J-6.608196
G02 X129.715145 Y91.989084 Z-6.000000 I-8.098120 J-9.439678
G02 X133.948356 Y76.231998 Z-6.000000 I-200.687608 J-62.362792
G02 X135.821685 Y67.310103 Z-6.000000 I-266.714923 J-60.659709
G02 X137.307460 Y58.717780 Z-6.000000 I-224.487747 J-43.242790
G02 X146.957620 Y56.581523 Z-6.000000 I-59.561847 J-291.924550
G02 X156.618510 Y54.108246 Z-6.000000 I-71.584423 J-299.721518
G02 X173.695815 Y48.692200 Z-6.000000 I-58.611056 J-214.437395
G02 X176.000000 Y45.467530 Z-6.000000 I-1.189787 J-3.285723
G02 X176.069353 Y36.801897 Z-6.000000 I-457.708972 J-7.996218
G02 X176.000000 Y0.786030 Z-6.000000 I-38869.009507 J56.838646
G01 X0.431109 Y0.786030 Z-6.000000
G02 X0.684004 Y34.122771 Z-6.000000 I2217.732059 J-0.154568
G02 X2.721012 Y38.955870 Z-6.000000 I7.003075 J-0.105770
G02 X5.261987 Y39.758971 Z-6.000000 I2.038007 J-2.026845
G03 X18.260427 Y38.037274 Z-6.000000 I25.959993 J146.063735
G03 X28.751247 Y38.306698 Z-6.000000 I4.060014 J46.291594
G03 X32.035408 Y42.109530 Z-6.000000 I-0.527504 J3.775090
G03 X28.732414 Y46.563073 Z-6.000000 I-4.699993 J-0.034162
G03 X18.313697 Y48.672224 Z-6.000000 I-15.507648 J-49.816602
G03 X5.764682 Y49.423623 Z-6.000000 I-16.186276 J-165.159344
G02 X3.512379 Y50.877560 Z-6.000000 I0.056087 J2.558381
G02 X2.956407 Y55.803014 Z-6.000000 I6.822475 J3.264209
G02 X4.636092 Y59.774580 Z-6.000000 I11.836294 J-2.664921
G02 X6.668305 Y60.540118 Z-6.000000 I1.539133 J-1.005668
G03 X19.156824 Y57.647262 Z-6.000000 I39.182749 J140.749707
G03 X29.490883 Y56.898390 Z-6.000000 I8.514243 J45.815434
G03 X33.229118 Y60.376427 Z-6.000000 I-0.152900 J3.912307
G03 X30.559992 Y65.063107 Z-6.000000 I-4.556320 J0.508508
G03 X21.012410 Y68.029803 Z-6.000000 I-16.774582 J-37.138259
G03 X8.965554 Y69.598129 Z-6.000000 I-22.069267 J-122.469489
G02 X5.089688 Y70.915645 Z-6.000000 I0.674115 J8.342874
G02 X3.268196 Y74.133601 Z-6.000000 I2.172283 J3.354095
G02 X3.390997 Y86.907564 Z-6.000000 I146.164113 J4.982441
G02 X3.898474 Y94.026607 Z-6.000000 I199.500320 J-10.643640
G02 X4.652290 Y100.982446 Z-6.000000 I184.143689 J-16.437205
G01 X93.653126 Y101.035796 Z-6.000000
G01 X93.653126 Y101.035791 Z-6.000000
G00 Z8.000000

(End cutting path id: path44692)


(Footer)
M5
G00 X0.0000 Y0.0000
M2
(Using default footer. To add your own footer create file "footer" in the output dir.)
(end)
%