%
(Header)
(Generated by gcodetools from Inkscape.)
(Using default header. To add your own header create file "header" in the output dir.)
M3
(Header end.)
G21 (All units in mm)

(Start cutting path id: path44692)
(Change tool to Cylindrical cutter)

G00 Z8.000000
G00 X82.820144 Y101.035791

G01 Z-3.100000 F400.0(Penetrate)
G03 X54.064722 Y99.293453 Z-3.100000 I-0.115759 J-236.249467 F400.000000
G03 X50.537100 Y97.738007 Z-3.100000 I0.807039 J-6.608196
G03 X46.758125 Y91.989084 Z-3.100000 I8.098120 J-9.439678
G03 X42.524914 Y76.231998 Z-3.100000 I200.687608 J-62.362792
G03 X40.651585 Y67.310103 Z-3.100000 I266.714923 J-60.659709
G03 X39.165810 Y58.717780 Z-3.100000 I224.487747 J-43.242790
G03 X29.515650 Y56.581523 Z-3.100000 I59.561847 J-291.924550
G03 X19.854760 Y54.108246 Z-3.100000 I71.584423 J-299.721518
G03 X2.777455 Y48.692200 Z-3.100000 I58.611056 J-214.437395
G03 X0.473270 Y45.467530 Z-3.100000 I1.189787 J-3.285723
G03 X0.403917 Y36.801897 Z-3.100000 I457.708972 J-7.996218
G03 X0.473270 Y0.786030 Z-3.100000 I38869.009507 J56.838646
G01 X176.042160 Y0.786030 Z-3.100000
G03 X175.788869 Y34.123041 Z-3.100000 I-2218.375731 J-0.185535
G03 X173.752260 Y38.955870 Z-3.100000 I-7.003573 J-0.105845
G03 X171.211280 Y39.758971 Z-3.100000 I-2.038010 J-2.026854
G02 X158.212843 Y38.037274 Z-3.100000 I-25.959995 J146.063771
G02 X147.722023 Y38.306698 Z-3.100000 I-4.060014 J46.291590
G02 X144.437860 Y42.109530 Z-3.100000 I0.527504 J3.775091
G02 X147.740860 Y46.563074 Z-3.100000 I4.700002 J-0.034170
G02 X158.159578 Y48.672224 Z-3.100000 I15.507653 J-49.816636
G02 X170.708589 Y49.423623 Z-3.100000 I16.186278 J-165.159339
G03 X172.960890 Y50.877560 Z-3.100000 I-0.056087 J2.558380
G03 X173.516861 Y55.803015 Z-3.100000 I-6.822474 J3.264207
G03 X171.837180 Y59.774580 Z-3.100000 I-11.836369 J-2.664944
G03 X169.804964 Y60.540118 Z-3.100000 I-1.539135 J-1.005672
G02 X157.316445 Y57.647262 Z-3.100000 I-39.182757 J140.749755
G02 X146.982386 Y56.898390 Z-3.100000 I-8.514244 J45.815439
G02 X143.244150 Y60.376427 Z-3.100000 I0.152900 J3.912308
G02 X145.913275 Y65.063107 Z-3.100000 I4.556318 J0.508509
G02 X155.460859 Y68.029803 Z-3.100000 I16.774585 J-37.138271
G02 X167.507717 Y69.598129 Z-3.100000 I22.069269 J-122.469517
G03 X171.383580 Y70.915645 Z-3.100000 I-0.674113 J8.342858
G03 X173.205074 Y74.133602 Z-3.100000 I-2.172281 J3.354098
G03 X173.082274 Y86.907564 Z-3.100000 I-146.163854 J4.982449
G03 X172.574797 Y94.026607 Z-3.100000 I-199.500035 J-10.643630
G03 X171.820980 Y100.982446 Z-3.100000 I-184.143432 J-16.437195
G01 X82.820144 Y101.035796 Z-3.100000
G01 X82.820144 Y101.035791 Z-3.100000
G00 Z8.000000

(End cutting path id: path44692)


(Start cutting path id: path44692)
(Change tool to Cylindrical cutter)

G00 Z8.000000
G00 X82.820144 Y101.035791

G01 Z-6.000000 F400.0(Penetrate)
G03 X54.064722 Y99.293453 Z-6.000000 I-0.115759 J-236.249467 F400.000000
G03 X50.537100 Y97.738007 Z-6.000000 I0.807039 J-6.608196
G03 X46.758125 Y91.989084 Z-6.000000 I8.098120 J-9.439678
G03 X42.524914 Y76.231998 Z-6.000000 I200.687608 J-62.362792
G03 X40.651585 Y67.310103 Z-6.000000 I266.714923 J-60.659709
G03 X39.165810 Y58.717780 Z-6.000000 I224.487747 J-43.242790
G03 X29.515650 Y56.581523 Z-6.000000 I59.561847 J-291.924550
G03 X19.854760 Y54.108246 Z-6.000000 I71.584423 J-299.721518
G03 X2.777455 Y48.692200 Z-6.000000 I58.611056 J-214.437395
G03 X0.473270 Y45.467530 Z-6.000000 I1.189787 J-3.285723
G03 X0.403917 Y36.801897 Z-6.000000 I457.708972 J-7.996218
G03 X0.473270 Y0.786030 Z-6.000000 I38869.009507 J56.838646
G01 X176.042160 Y0.786030 Z-6.000000
G03 X175.788869 Y34.123041 Z-6.000000 I-2218.375731 J-0.185535
G03 X173.752260 Y38.955870 Z-6.000000 I-7.003573 J-0.105845
G03 X171.211280 Y39.758971 Z-6.000000 I-2.038010 J-2.026854
G02 X158.212843 Y38.037274 Z-6.000000 I-25.959995 J146.063771
G02 X147.722023 Y38.306698 Z-6.000000 I-4.060014 J46.291590
G02 X144.437860 Y42.109530 Z-6.000000 I0.527504 J3.775091
G02 X147.740860 Y46.563074 Z-6.000000 I4.700002 J-0.034170
G02 X158.159578 Y48.672224 Z-6.000000 I15.507653 J-49.816636
G02 X170.708589 Y49.423623 Z-6.000000 I16.186278 J-165.159339
G03 X172.960890 Y50.877560 Z-6.000000 I-0.056087 J2.558380
G03 X173.516861 Y55.803015 Z-6.000000 I-6.822474 J3.264207
G03 X171.837180 Y59.774580 Z-6.000000 I-11.836369 J-2.664944
G03 X169.804964 Y60.540118 Z-6.000000 I-1.539135 J-1.005672
G02 X157.316445 Y57.647262 Z-6.000000 I-39.182757 J140.749755
G02 X146.982386 Y56.898390 Z-6.000000 I-8.514244 J45.815439
G02 X143.244150 Y60.376427 Z-6.000000 I0.152900 J3.912308
G02 X145.913275 Y65.063107 Z-6.000000 I4.556318 J0.508509
G02 X155.460859 Y68.029803 Z-6.000000 I16.774585 J-37.138271
G02 X167.507717 Y69.598129 Z-6.000000 I22.069269 J-122.469517
G03 X171.383580 Y70.915645 Z-6.000000 I-0.674113 J8.342858
G03 X173.205074 Y74.133602 Z-6.000000 I-2.172281 J3.354098
G03 X173.082274 Y86.907564 Z-6.000000 I-146.163854 J4.982449
G03 X172.574797 Y94.026607 Z-6.000000 I-199.500035 J-10.643630
G03 X171.820980 Y100.982446 Z-6.000000 I-184.143432 J-16.437195
G01 X82.820144 Y101.035796 Z-6.000000
G01 X82.820144 Y101.035791 Z-6.000000
G00 Z8.000000

(End cutting path id: path44692)


(Start cutting path id: path44692)
(Change tool to Cylindrical cutter)

G00 Z8.000000
G00 X82.820144 Y101.035791

G01 Z-6.000000 F400.0(Penetrate)
G03 X54.064722 Y99.293453 Z-6.000000 I-0.115759 J-236.249467 F400.000000
G03 X50.537100 Y97.738007 Z-6.000000 I0.807039 J-6.608196
G03 X46.758125 Y91.989084 Z-6.000000 I8.098120 J-9.439678
G03 X42.524914 Y76.231998 Z-6.000000 I200.687608 J-62.362792
G03 X40.651585 Y67.310103 Z-6.000000 I266.714923 J-60.659709
G03 X39.165810 Y58.717780 Z-6.000000 I224.487747 J-43.242790
G03 X29.515650 Y56.581523 Z-6.000000 I59.561847 J-291.924550
G03 X19.854760 Y54.108246 Z-6.000000 I71.584423 J-299.721518
G03 X2.777455 Y48.692200 Z-6.000000 I58.611056 J-214.437395
G03 X0.473270 Y45.467530 Z-6.000000 I1.189787 J-3.285723
G03 X0.403917 Y36.801897 Z-6.000000 I457.708972 J-7.996218
G03 X0.473270 Y0.786030 Z-6.000000 I38869.009507 J56.838646
G01 X176.042160 Y0.786030 Z-6.000000
G03 X175.788869 Y34.123041 Z-6.000000 I-2218.375731 J-0.185535
G03 X173.752260 Y38.955870 Z-6.000000 I-7.003573 J-0.105845
G03 X171.211280 Y39.758971 Z-6.000000 I-2.038010 J-2.026854
G02 X158.212843 Y38.037274 Z-6.000000 I-25.959995 J146.063771
G02 X147.722023 Y38.306698 Z-6.000000 I-4.060014 J46.291590
G02 X144.437860 Y42.109530 Z-6.000000 I0.527504 J3.775091
G02 X147.740860 Y46.563074 Z-6.000000 I4.700002 J-0.034170
G02 X158.159578 Y48.672224 Z-6.000000 I15.507653 J-49.816636
G02 X170.708589 Y49.423623 Z-6.000000 I16.186278 J-165.159339
G03 X172.960890 Y50.877560 Z-6.000000 I-0.056087 J2.558380
G03 X173.516861 Y55.803015 Z-6.000000 I-6.822474 J3.264207
G03 X171.837180 Y59.774580 Z-6.000000 I-11.836369 J-2.664944
G03 X169.804964 Y60.540118 Z-6.000000 I-1.539135 J-1.005672
G02 X157.316445 Y57.647262 Z-6.000000 I-39.182757 J140.749755
G02 X146.982386 Y56.898390 Z-6.000000 I-8.514244 J45.815439
G02 X143.244150 Y60.376427 Z-6.000000 I0.152900 J3.912308
G02 X145.913275 Y65.063107 Z-6.000000 I4.556318 J0.508509
G02 X155.460859 Y68.029803 Z-6.000000 I16.774585 J-37.138271
G02 X167.507717 Y69.598129 Z-6.000000 I22.069269 J-122.469517
G03 X171.383580 Y70.915645 Z-6.000000 I-0.674113 J8.342858
G03 X173.205074 Y74.133602 Z-6.000000 I-2.172281 J3.354098
G03 X173.082274 Y86.907564 Z-6.000000 I-146.163854 J4.982449
G03 X172.574797 Y94.026607 Z-6.000000 I-199.500035 J-10.643630
G03 X171.820980 Y100.982446 Z-6.000000 I-184.143432 J-16.437195
G01 X82.820144 Y101.035796 Z-6.000000
G01 X82.820144 Y101.035791 Z-6.000000
G00 Z8.000000

(End cutting path id: path44692)


(Footer)
M5
G00 X0.0000 Y0.0000
M2
(Using default footer. To add your own footer create file "footer" in the output dir.)
(end)
%