%
(Header)
(Generated by gcodetools from Inkscape.)
(Using default header. To add your own header create file "header" in the output dir.)
M3
(Header end.)
G21 (All units in mm)

(Start cutting path id: path840)
(Change tool to Cylindrical cutter)

G00 Z8.000000
G00 X119.446626 Y47.195730

G01 Z-3.100000 F400.0(Penetrate)
G03 X120.055590 Y44.134263 Z-3.100000 I8.000000 J-0.000000 F400.000000
G03 X121.789772 Y41.538876 Z-3.100000 I7.391036 J3.061467
G03 X124.385159 Y39.804694 Z-3.100000 I5.656854 J5.656854
G03 X127.446626 Y39.195730 Z-3.100000 I3.061467 J7.391036
G03 X130.508093 Y39.804694 Z-3.100000 I0.000000 J8.000000
G03 X133.103480 Y41.538876 Z-3.100000 I-3.061467 J7.391036
G03 X134.837662 Y44.134263 Z-3.100000 I-5.656854 J5.656854
G03 X135.446626 Y47.195730 Z-3.100000 I-7.391036 J3.061467
G03 X134.837662 Y50.257197 Z-3.100000 I-8.000000 J-0.000000
G03 X133.103480 Y52.852584 Z-3.100000 I-7.391036 J-3.061467
G03 X130.508093 Y54.586766 Z-3.100000 I-5.656854 J-5.656854
G03 X127.446626 Y55.195730 Z-3.100000 I-3.061467 J-7.391036
G03 X124.385159 Y54.586766 Z-3.100000 I0.000000 J-8.000000
G03 X121.789772 Y52.852584 Z-3.100000 I3.061467 J-7.391036
G03 X120.055590 Y50.257197 Z-3.100000 I5.656854 J-5.656854
G03 X119.446626 Y47.195730 Z-3.100000 I7.391036 J-3.061467
G01 X119.446626 Y47.195730 Z-3.100000
G00 Z8.000000

(End cutting path id: path840)


(Start cutting path id: path840)
(Change tool to Cylindrical cutter)

G00 Z8.000000
G00 X119.446626 Y47.195730

G01 Z-6.000000 F400.0(Penetrate)
G03 X120.055590 Y44.134263 Z-6.000000 I8.000000 J-0.000000 F400.000000
G03 X121.789772 Y41.538876 Z-6.000000 I7.391036 J3.061467
G03 X124.385159 Y39.804694 Z-6.000000 I5.656854 J5.656854
G03 X127.446626 Y39.195730 Z-6.000000 I3.061467 J7.391036
G03 X130.508093 Y39.804694 Z-6.000000 I0.000000 J8.000000
G03 X133.103480 Y41.538876 Z-6.000000 I-3.061467 J7.391036
G03 X134.837662 Y44.134263 Z-6.000000 I-5.656854 J5.656854
G03 X135.446626 Y47.195730 Z-6.000000 I-7.391036 J3.061467
G03 X134.837662 Y50.257197 Z-6.000000 I-8.000000 J-0.000000
G03 X133.103480 Y52.852584 Z-6.000000 I-7.391036 J-3.061467
G03 X130.508093 Y54.586766 Z-6.000000 I-5.656854 J-5.656854
G03 X127.446626 Y55.195730 Z-6.000000 I-3.061467 J-7.391036
G03 X124.385159 Y54.586766 Z-6.000000 I0.000000 J-8.000000
G03 X121.789772 Y52.852584 Z-6.000000 I3.061467 J-7.391036
G03 X120.055590 Y50.257197 Z-6.000000 I5.656854 J-5.656854
G03 X119.446626 Y47.195730 Z-6.000000 I7.391036 J-3.061467
G01 X119.446626 Y47.195730 Z-6.000000
G00 Z8.000000

(End cutting path id: path840)


(Start cutting path id: path840)
(Change tool to Cylindrical cutter)

G00 Z8.000000
G00 X119.446626 Y47.195730

G01 Z-6.000000 F400.0(Penetrate)
G03 X120.055590 Y44.134263 Z-6.000000 I8.000000 J-0.000000 F400.000000
G03 X121.789772 Y41.538876 Z-6.000000 I7.391036 J3.061467
G03 X124.385159 Y39.804694 Z-6.000000 I5.656854 J5.656854
G03 X127.446626 Y39.195730 Z-6.000000 I3.061467 J7.391036
G03 X130.508093 Y39.804694 Z-6.000000 I0.000000 J8.000000
G03 X133.103480 Y41.538876 Z-6.000000 I-3.061467 J7.391036
G03 X134.837662 Y44.134263 Z-6.000000 I-5.656854 J5.656854
G03 X135.446626 Y47.195730 Z-6.000000 I-7.391036 J3.061467
G03 X134.837662 Y50.257197 Z-6.000000 I-8.000000 J-0.000000
G03 X133.103480 Y52.852584 Z-6.000000 I-7.391036 J-3.061467
G03 X130.508093 Y54.586766 Z-6.000000 I-5.656854 J-5.656854
G03 X127.446626 Y55.195730 Z-6.000000 I-3.061467 J-7.391036
G03 X124.385159 Y54.586766 Z-6.000000 I0.000000 J-8.000000
G03 X121.789772 Y52.852584 Z-6.000000 I3.061467 J-7.391036
G03 X120.055590 Y50.257197 Z-6.000000 I5.656854 J-5.656854
G03 X119.446626 Y47.195730 Z-6.000000 I7.391036 J-3.061467
G01 X119.446626 Y47.195730 Z-6.000000
G00 Z8.000000

(End cutting path id: path840)


(Start cutting path id: circle50325)
(Change tool to Cylindrical cutter)

G00 Z8.000000
G00 X105.328134 Y48.711620

G01 Z-3.100000 F400.0(Penetrate)
G03 X105.362388 Y48.539412 Z-3.100000 I0.450000 J-0.000000 F400.000000
G03 X105.459936 Y48.393422 Z-3.100000 I0.415746 J0.172208
G03 X105.605926 Y48.295874 Z-3.100000 I0.318198 J0.318198
G03 X105.778134 Y48.261620 Z-3.100000 I0.172208 J0.415746
G03 X105.950342 Y48.295874 Z-3.100000 I0.000000 J0.450000
G03 X106.096332 Y48.393422 Z-3.100000 I-0.172208 J0.415746
G03 X106.193880 Y48.539412 Z-3.100000 I-0.318198 J0.318198
G03 X106.228134 Y48.711620 Z-3.100000 I-0.415746 J0.172208
G03 X106.193880 Y48.883828 Z-3.100000 I-0.450000 J0.000000
G03 X106.096332 Y49.029818 Z-3.100000 I-0.415746 J-0.172208
G03 X105.950342 Y49.127366 Z-3.100000 I-0.318198 J-0.318198
G03 X105.778134 Y49.161620 Z-3.100000 I-0.172208 J-0.415746
G03 X105.605926 Y49.127366 Z-3.100000 I-0.000000 J-0.450000
G03 X105.459936 Y49.029818 Z-3.100000 I0.172208 J-0.415746
G03 X105.362388 Y48.883828 Z-3.100000 I0.318198 J-0.318198
G03 X105.328134 Y48.711620 Z-3.100000 I0.415746 J-0.172208
G01 X105.328134 Y48.711620 Z-3.100000
G00 Z8.000000

(End cutting path id: circle50325)


(Start cutting path id: circle50325)
(Change tool to Cylindrical cutter)

G00 Z8.000000
G00 X105.328134 Y48.711620

G01 Z-6.000000 F400.0(Penetrate)
G03 X105.362388 Y48.539412 Z-6.000000 I0.450000 J-0.000000 F400.000000
G03 X105.459936 Y48.393422 Z-6.000000 I0.415746 J0.172208
G03 X105.605926 Y48.295874 Z-6.000000 I0.318198 J0.318198
G03 X105.778134 Y48.261620 Z-6.000000 I0.172208 J0.415746
G03 X105.950342 Y48.295874 Z-6.000000 I0.000000 J0.450000
G03 X106.096332 Y48.393422 Z-6.000000 I-0.172208 J0.415746
G03 X106.193880 Y48.539412 Z-6.000000 I-0.318198 J0.318198
G03 X106.228134 Y48.711620 Z-6.000000 I-0.415746 J0.172208
G03 X106.193880 Y48.883828 Z-6.000000 I-0.450000 J0.000000
G03 X106.096332 Y49.029818 Z-6.000000 I-0.415746 J-0.172208
G03 X105.950342 Y49.127366 Z-6.000000 I-0.318198 J-0.318198
G03 X105.778134 Y49.161620 Z-6.000000 I-0.172208 J-0.415746
G03 X105.605926 Y49.127366 Z-6.000000 I-0.000000 J-0.450000
G03 X105.459936 Y49.029818 Z-6.000000 I0.172208 J-0.415746
G03 X105.362388 Y48.883828 Z-6.000000 I0.318198 J-0.318198
G03 X105.328134 Y48.711620 Z-6.000000 I0.415746 J-0.172208
G01 X105.328134 Y48.711620 Z-6.000000
G00 Z8.000000

(End cutting path id: circle50325)


(Start cutting path id: circle50325)
(Change tool to Cylindrical cutter)

G00 Z8.000000
G00 X105.328134 Y48.711620

G01 Z-6.000000 F400.0(Penetrate)
G03 X105.362388 Y48.539412 Z-6.000000 I0.450000 J-0.000000 F400.000000
G03 X105.459936 Y48.393422 Z-6.000000 I0.415746 J0.172208
G03 X105.605926 Y48.295874 Z-6.000000 I0.318198 J0.318198
G03 X105.778134 Y48.261620 Z-6.000000 I0.172208 J0.415746
G03 X105.950342 Y48.295874 Z-6.000000 I0.000000 J0.450000
G03 X106.096332 Y48.393422 Z-6.000000 I-0.172208 J0.415746
G03 X106.193880 Y48.539412 Z-6.000000 I-0.318198 J0.318198
G03 X106.228134 Y48.711620 Z-6.000000 I-0.415746 J0.172208
G03 X106.193880 Y48.883828 Z-6.000000 I-0.450000 J0.000000
G03 X106.096332 Y49.029818 Z-6.000000 I-0.415746 J-0.172208
G03 X105.950342 Y49.127366 Z-6.000000 I-0.318198 J-0.318198
G03 X105.778134 Y49.161620 Z-6.000000 I-0.172208 J-0.415746
G03 X105.605926 Y49.127366 Z-6.000000 I-0.000000 J-0.450000
G03 X105.459936 Y49.029818 Z-6.000000 I0.172208 J-0.415746
G03 X105.362388 Y48.883828 Z-6.000000 I0.318198 J-0.318198
G03 X105.328134 Y48.711620 Z-6.000000 I0.415746 J-0.172208
G01 X105.328134 Y48.711620 Z-6.000000
G00 Z8.000000

(End cutting path id: circle50325)


(Start cutting path id: rect50317)
(Change tool to Cylindrical cutter)

G00 Z8.000000
G00 X100.169805 Y52.603124

G01 Z-3.100000 F400.0(Penetrate)
G01 X61.386990 Y52.603124 Z-3.100000 F400.000000
G01 X61.386990 Y34.820310 Z-3.100000
G01 X100.169805 Y34.820310 Z-3.100000
G01 X100.169805 Y52.603124 Z-3.100000
G00 Z8.000000

(End cutting path id: rect50317)


(Start cutting path id: rect50317)
(Change tool to Cylindrical cutter)

G00 Z8.000000
G00 X100.169805 Y52.603124

G01 Z-6.000000 F400.0(Penetrate)
G01 X61.386990 Y52.603124 Z-6.000000 F400.000000
G01 X61.386990 Y34.820310 Z-6.000000
G01 X100.169805 Y34.820310 Z-6.000000
G01 X100.169805 Y52.603124 Z-6.000000
G00 Z8.000000

(End cutting path id: rect50317)


(Start cutting path id: rect50317)
(Change tool to Cylindrical cutter)

G00 Z8.000000
G00 X100.169805 Y52.603124

G01 Z-6.000000 F400.0(Penetrate)
G01 X61.386990 Y52.603124 Z-6.000000 F400.000000
G01 X61.386990 Y34.820310 Z-6.000000
G01 X100.169805 Y34.820310 Z-6.000000
G01 X100.169805 Y52.603124 Z-6.000000
G00 Z8.000000

(End cutting path id: rect50317)


(Start cutting path id: circle50323)
(Change tool to Cylindrical cutter)

G00 Z8.000000
G00 X105.328134 Y38.711620

G01 Z-3.100000 F400.0(Penetrate)
G03 X105.362388 Y38.539412 Z-3.100000 I0.450000 J-0.000000 F400.000000
G03 X105.459936 Y38.393422 Z-3.100000 I0.415746 J0.172208
G03 X105.605926 Y38.295874 Z-3.100000 I0.318198 J0.318198
G03 X105.778134 Y38.261620 Z-3.100000 I0.172208 J0.415746
G03 X105.950342 Y38.295874 Z-3.100000 I0.000000 J0.450000
G03 X106.096332 Y38.393422 Z-3.100000 I-0.172208 J0.415746
G03 X106.193880 Y38.539412 Z-3.100000 I-0.318198 J0.318198
G03 X106.228134 Y38.711620 Z-3.100000 I-0.415746 J0.172208
G03 X106.193880 Y38.883828 Z-3.100000 I-0.450000 J0.000000
G03 X106.096332 Y39.029818 Z-3.100000 I-0.415746 J-0.172208
G03 X105.950342 Y39.127366 Z-3.100000 I-0.318198 J-0.318198
G03 X105.778134 Y39.161620 Z-3.100000 I-0.172208 J-0.415746
G03 X105.605926 Y39.127366 Z-3.100000 I-0.000000 J-0.450000
G03 X105.459936 Y39.029818 Z-3.100000 I0.172208 J-0.415746
G03 X105.362388 Y38.883828 Z-3.100000 I0.318198 J-0.318198
G03 X105.328134 Y38.711620 Z-3.100000 I0.415746 J-0.172208
G01 X105.328134 Y38.711620 Z-3.100000
G00 Z8.000000

(End cutting path id: circle50323)


(Start cutting path id: circle50323)
(Change tool to Cylindrical cutter)

G00 Z8.000000
G00 X105.328134 Y38.711620

G01 Z-6.000000 F400.0(Penetrate)
G03 X105.362388 Y38.539412 Z-6.000000 I0.450000 J-0.000000 F400.000000
G03 X105.459936 Y38.393422 Z-6.000000 I0.415746 J0.172208
G03 X105.605926 Y38.295874 Z-6.000000 I0.318198 J0.318198
G03 X105.778134 Y38.261620 Z-6.000000 I0.172208 J0.415746
G03 X105.950342 Y38.295874 Z-6.000000 I0.000000 J0.450000
G03 X106.096332 Y38.393422 Z-6.000000 I-0.172208 J0.415746
G03 X106.193880 Y38.539412 Z-6.000000 I-0.318198 J0.318198
G03 X106.228134 Y38.711620 Z-6.000000 I-0.415746 J0.172208
G03 X106.193880 Y38.883828 Z-6.000000 I-0.450000 J0.000000
G03 X106.096332 Y39.029818 Z-6.000000 I-0.415746 J-0.172208
G03 X105.950342 Y39.127366 Z-6.000000 I-0.318198 J-0.318198
G03 X105.778134 Y39.161620 Z-6.000000 I-0.172208 J-0.415746
G03 X105.605926 Y39.127366 Z-6.000000 I-0.000000 J-0.450000
G03 X105.459936 Y39.029818 Z-6.000000 I0.172208 J-0.415746
G03 X105.362388 Y38.883828 Z-6.000000 I0.318198 J-0.318198
G03 X105.328134 Y38.711620 Z-6.000000 I0.415746 J-0.172208
G01 X105.328134 Y38.711620 Z-6.000000
G00 Z8.000000

(End cutting path id: circle50323)


(Start cutting path id: circle50323)
(Change tool to Cylindrical cutter)

G00 Z8.000000
G00 X105.328134 Y38.711620

G01 Z-6.000000 F400.0(Penetrate)
G03 X105.362388 Y38.539412 Z-6.000000 I0.450000 J-0.000000 F400.000000
G03 X105.459936 Y38.393422 Z-6.000000 I0.415746 J0.172208
G03 X105.605926 Y38.295874 Z-6.000000 I0.318198 J0.318198
G03 X105.778134 Y38.261620 Z-6.000000 I0.172208 J0.415746
G03 X105.950342 Y38.295874 Z-6.000000 I0.000000 J0.450000
G03 X106.096332 Y38.393422 Z-6.000000 I-0.172208 J0.415746
G03 X106.193880 Y38.539412 Z-6.000000 I-0.318198 J0.318198
G03 X106.228134 Y38.711620 Z-6.000000 I-0.415746 J0.172208
G03 X106.193880 Y38.883828 Z-6.000000 I-0.450000 J0.000000
G03 X106.096332 Y39.029818 Z-6.000000 I-0.415746 J-0.172208
G03 X105.950342 Y39.127366 Z-6.000000 I-0.318198 J-0.318198
G03 X105.778134 Y39.161620 Z-6.000000 I-0.172208 J-0.415746
G03 X105.605926 Y39.127366 Z-6.000000 I-0.000000 J-0.450000
G03 X105.459936 Y39.029818 Z-6.000000 I0.172208 J-0.415746
G03 X105.362388 Y38.883828 Z-6.000000 I0.318198 J-0.318198
G03 X105.328134 Y38.711620 Z-6.000000 I0.415746 J-0.172208
G01 X105.328134 Y38.711620 Z-6.000000
G00 Z8.000000

(End cutting path id: circle50323)


(Start cutting path id: rect894)
(Change tool to Cylindrical cutter)

G00 Z8.000000
G00 X109.863011 Y11.190580

G01 Z-3.100000 F400.0(Penetrate)
G01 X109.863011 Y6.149670 Z-3.100000 F400.000000
G01 X123.857559 Y6.149670 Z-3.100000
G01 X123.857559 Y11.190580 Z-3.100000
G01 X109.863011 Y11.190580 Z-3.100000
G00 Z8.000000

(End cutting path id: rect894)


(Start cutting path id: rect894)
(Change tool to Cylindrical cutter)

G00 Z8.000000
G00 X109.863011 Y11.190580

G01 Z-6.000000 F400.0(Penetrate)
G01 X109.863011 Y6.149670 Z-6.000000 F400.000000
G01 X123.857559 Y6.149670 Z-6.000000
G01 X123.857559 Y11.190580 Z-6.000000
G01 X109.863011 Y11.190580 Z-6.000000
G00 Z8.000000

(End cutting path id: rect894)


(Start cutting path id: rect894)
(Change tool to Cylindrical cutter)

G00 Z8.000000
G00 X109.863011 Y11.190580

G01 Z-6.000000 F400.0(Penetrate)
G01 X109.863011 Y6.149670 Z-6.000000 F400.000000
G01 X123.857559 Y6.149670 Z-6.000000
G01 X123.857559 Y11.190580 Z-6.000000
G01 X109.863011 Y11.190580 Z-6.000000
G00 Z8.000000

(End cutting path id: rect894)


(Start cutting path id: circle7919)
(Change tool to Cylindrical cutter)

G00 Z8.000000
G00 X141.046660 Y10.298400

G01 Z-3.100000 F400.0(Penetrate)
G03 X141.412777 Y9.414517 Z-3.100000 I1.250000 J0.000000 F400.000000
G03 X142.296660 Y9.048400 Z-3.100000 I0.883884 J0.883884
G03 X142.775017 Y9.143548 Z-3.100000 I0.000010 J1.250000
G03 X143.180550 Y9.414513 Z-3.100000 I-0.478347 J1.154852
G03 X143.451518 Y9.820043 Z-3.100000 I-0.883880 J0.883887
G03 X143.546670 Y10.298400 Z-3.100000 I-1.154849 J0.478357
G03 X143.451518 Y10.776757 Z-3.100000 I-1.250000 J-0.000000
G03 X143.180550 Y11.182287 Z-3.100000 I-1.154849 J-0.478357
G03 X142.775017 Y11.453252 Z-3.100000 I-0.883880 J-0.883887
G03 X142.296660 Y11.548400 Z-3.100000 I-0.478347 J-1.154852
G03 X141.412777 Y11.182283 Z-3.100000 I0.000000 J-1.250000
G03 X141.046660 Y10.298400 Z-3.100000 I0.883884 J-0.883884
G01 X141.046660 Y10.298400 Z-3.100000
G00 Z8.000000

(End cutting path id: circle7919)


(Start cutting path id: circle7919)
(Change tool to Cylindrical cutter)

G00 Z8.000000
G00 X141.046660 Y10.298400

G01 Z-6.000000 F400.0(Penetrate)
G03 X141.412777 Y9.414517 Z-6.000000 I1.250000 J0.000000 F400.000000
G03 X142.296660 Y9.048400 Z-6.000000 I0.883884 J0.883884
G03 X142.775017 Y9.143548 Z-6.000000 I0.000010 J1.250000
G03 X143.180550 Y9.414513 Z-6.000000 I-0.478347 J1.154852
G03 X143.451518 Y9.820043 Z-6.000000 I-0.883880 J0.883887
G03 X143.546670 Y10.298400 Z-6.000000 I-1.154849 J0.478357
G03 X143.451518 Y10.776757 Z-6.000000 I-1.250000 J-0.000000
G03 X143.180550 Y11.182287 Z-6.000000 I-1.154849 J-0.478357
G03 X142.775017 Y11.453252 Z-6.000000 I-0.883880 J-0.883887
G03 X142.296660 Y11.548400 Z-6.000000 I-0.478347 J-1.154852
G03 X141.412777 Y11.182283 Z-6.000000 I0.000000 J-1.250000
G03 X141.046660 Y10.298400 Z-6.000000 I0.883884 J-0.883884
G01 X141.046660 Y10.298400 Z-6.000000
G00 Z8.000000

(End cutting path id: circle7919)


(Start cutting path id: circle7919)
(Change tool to Cylindrical cutter)

G00 Z8.000000
G00 X141.046660 Y10.298400

G01 Z-6.000000 F400.0(Penetrate)
G03 X141.412777 Y9.414517 Z-6.000000 I1.250000 J0.000000 F400.000000
G03 X142.296660 Y9.048400 Z-6.000000 I0.883884 J0.883884
G03 X142.775017 Y9.143548 Z-6.000000 I0.000010 J1.250000
G03 X143.180550 Y9.414513 Z-6.000000 I-0.478347 J1.154852
G03 X143.451518 Y9.820043 Z-6.000000 I-0.883880 J0.883887
G03 X143.546670 Y10.298400 Z-6.000000 I-1.154849 J0.478357
G03 X143.451518 Y10.776757 Z-6.000000 I-1.250000 J-0.000000
G03 X143.180550 Y11.182287 Z-6.000000 I-1.154849 J-0.478357
G03 X142.775017 Y11.453252 Z-6.000000 I-0.883880 J-0.883887
G03 X142.296660 Y11.548400 Z-6.000000 I-0.478347 J-1.154852
G03 X141.412777 Y11.182283 Z-6.000000 I0.000000 J-1.250000
G03 X141.046660 Y10.298400 Z-6.000000 I0.883884 J-0.883884
G01 X141.046660 Y10.298400 Z-6.000000
G00 Z8.000000

(End cutting path id: circle7919)


(Start cutting path id: circle880-7)
(Change tool to Cylindrical cutter)

G00 Z8.000000
G00 X147.423355 Y10.298400

G01 Z-3.100000 F400.0(Penetrate)
G03 X147.789472 Y9.414517 Z-3.100000 I1.250000 J0.000000 F400.000000
G03 X148.673355 Y9.048400 Z-3.100000 I0.883884 J0.883884
G03 X149.557238 Y9.414517 Z-3.100000 I-0.000000 J1.250000
G03 X149.923355 Y10.298400 Z-3.100000 I-0.883884 J0.883884
G03 X149.557238 Y11.182283 Z-3.100000 I-1.250000 J-0.000000
G03 X148.673355 Y11.548400 Z-3.100000 I-0.883884 J-0.883884
G03 X147.789472 Y11.182283 Z-3.100000 I0.000000 J-1.250000
G03 X147.423355 Y10.298400 Z-3.100000 I0.883884 J-0.883884
G01 X147.423355 Y10.298400 Z-3.100000
G00 Z8.000000

(End cutting path id: circle880-7)


(Start cutting path id: circle880-7)
(Change tool to Cylindrical cutter)

G00 Z8.000000
G00 X147.423355 Y10.298400

G01 Z-6.000000 F400.0(Penetrate)
G03 X147.789472 Y9.414517 Z-6.000000 I1.250000 J0.000000 F400.000000
G03 X148.673355 Y9.048400 Z-6.000000 I0.883884 J0.883884
G03 X149.557238 Y9.414517 Z-6.000000 I-0.000000 J1.250000
G03 X149.923355 Y10.298400 Z-6.000000 I-0.883884 J0.883884
G03 X149.557238 Y11.182283 Z-6.000000 I-1.250000 J-0.000000
G03 X148.673355 Y11.548400 Z-6.000000 I-0.883884 J-0.883884
G03 X147.789472 Y11.182283 Z-6.000000 I0.000000 J-1.250000
G03 X147.423355 Y10.298400 Z-6.000000 I0.883884 J-0.883884
G01 X147.423355 Y10.298400 Z-6.000000
G00 Z8.000000

(End cutting path id: circle880-7)


(Start cutting path id: circle880-7)
(Change tool to Cylindrical cutter)

G00 Z8.000000
G00 X147.423355 Y10.298400

G01 Z-6.000000 F400.0(Penetrate)
G03 X147.789472 Y9.414517 Z-6.000000 I1.250000 J0.000000 F400.000000
G03 X148.673355 Y9.048400 Z-6.000000 I0.883884 J0.883884
G03 X149.557238 Y9.414517 Z-6.000000 I-0.000000 J1.250000
G03 X149.923355 Y10.298400 Z-6.000000 I-0.883884 J0.883884
G03 X149.557238 Y11.182283 Z-6.000000 I-1.250000 J-0.000000
G03 X148.673355 Y11.548400 Z-6.000000 I-0.883884 J-0.883884
G03 X147.789472 Y11.182283 Z-6.000000 I0.000000 J-1.250000
G03 X147.423355 Y10.298400 Z-6.000000 I0.883884 J-0.883884
G01 X147.423355 Y10.298400 Z-6.000000
G00 Z8.000000

(End cutting path id: circle880-7)


(Start cutting path id: rect1044)
(Change tool to Cylindrical cutter)

G00 Z8.000000
G00 X141.415751 Y72.195043

G01 Z-3.100000 F400.0(Penetrate)
G01 X127.915752 Y72.195043 Z-3.100000 F400.000000
G01 X127.915752 Y71.695043 Z-3.100000
G01 X141.415751 Y71.695043 Z-3.100000
G01 X141.415751 Y72.195043 Z-3.100000
G00 Z8.000000

(End cutting path id: rect1044)


(Start cutting path id: rect1044)
(Change tool to Cylindrical cutter)

G00 Z8.000000
G00 X141.415751 Y72.195043

G01 Z-6.000000 F400.0(Penetrate)
G01 X127.915752 Y72.195043 Z-6.000000 F400.000000
G01 X127.915752 Y71.695043 Z-6.000000
G01 X141.415751 Y71.695043 Z-6.000000
G01 X141.415751 Y72.195043 Z-6.000000
G00 Z8.000000

(End cutting path id: rect1044)


(Start cutting path id: rect1044)
(Change tool to Cylindrical cutter)

G00 Z8.000000
G00 X141.415751 Y72.195043

G01 Z-6.000000 F400.0(Penetrate)
G01 X127.915752 Y72.195043 Z-6.000000 F400.000000
G01 X127.915752 Y71.695043 Z-6.000000
G01 X141.415751 Y71.695043 Z-6.000000
G01 X141.415751 Y72.195043 Z-6.000000
G00 Z8.000000

(End cutting path id: rect1044)


(Start cutting path id: circle1020)
(Change tool to Cylindrical cutter)

G00 Z8.000000
G00 X147.880223 Y94.186718

G01 Z-3.100000 F400.0(Penetrate)
G03 X148.246340 Y93.302835 Z-3.100000 I1.250000 J0.000000 F400.000000
G03 X149.130223 Y92.936718 Z-3.100000 I0.883884 J0.883884
G03 X149.608578 Y93.031868 Z-3.100000 I0.000001 J1.250000
G03 X150.014107 Y93.302834 Z-3.100000 I-0.478354 J1.154850
G03 X150.285073 Y93.708363 Z-3.100000 I-0.883883 J0.883884
G03 X150.380224 Y94.186718 Z-3.100000 I-1.154849 J0.478355
G03 X150.285073 Y94.665073 Z-3.100000 I-1.250000 J-0.000000
G03 X150.014107 Y95.070602 Z-3.100000 I-1.154849 J-0.478355
G03 X149.608578 Y95.341568 Z-3.100000 I-0.883883 J-0.883884
G03 X149.130223 Y95.436718 Z-3.100000 I-0.478354 J-1.154850
G03 X148.246340 Y95.070601 Z-3.100000 I0.000000 J-1.250000
G03 X147.880223 Y94.186718 Z-3.100000 I0.883884 J-0.883884
G01 X147.880223 Y94.186718 Z-3.100000
G00 Z8.000000

(End cutting path id: circle1020)


(Start cutting path id: circle1020)
(Change tool to Cylindrical cutter)

G00 Z8.000000
G00 X147.880223 Y94.186718

G01 Z-6.000000 F400.0(Penetrate)
G03 X148.246340 Y93.302835 Z-6.000000 I1.250000 J0.000000 F400.000000
G03 X149.130223 Y92.936718 Z-6.000000 I0.883884 J0.883884
G03 X149.608578 Y93.031868 Z-6.000000 I0.000001 J1.250000
G03 X150.014107 Y93.302834 Z-6.000000 I-0.478354 J1.154850
G03 X150.285073 Y93.708363 Z-6.000000 I-0.883883 J0.883884
G03 X150.380224 Y94.186718 Z-6.000000 I-1.154849 J0.478355
G03 X150.285073 Y94.665073 Z-6.000000 I-1.250000 J-0.000000
G03 X150.014107 Y95.070602 Z-6.000000 I-1.154849 J-0.478355
G03 X149.608578 Y95.341568 Z-6.000000 I-0.883883 J-0.883884
G03 X149.130223 Y95.436718 Z-6.000000 I-0.478354 J-1.154850
G03 X148.246340 Y95.070601 Z-6.000000 I0.000000 J-1.250000
G03 X147.880223 Y94.186718 Z-6.000000 I0.883884 J-0.883884
G01 X147.880223 Y94.186718 Z-6.000000
G00 Z8.000000

(End cutting path id: circle1020)


(Start cutting path id: circle1020)
(Change tool to Cylindrical cutter)

G00 Z8.000000
G00 X147.880223 Y94.186718

G01 Z-6.000000 F400.0(Penetrate)
G03 X148.246340 Y93.302835 Z-6.000000 I1.250000 J0.000000 F400.000000
G03 X149.130223 Y92.936718 Z-6.000000 I0.883884 J0.883884
G03 X149.608578 Y93.031868 Z-6.000000 I0.000001 J1.250000
G03 X150.014107 Y93.302834 Z-6.000000 I-0.478354 J1.154850
G03 X150.285073 Y93.708363 Z-6.000000 I-0.883883 J0.883884
G03 X150.380224 Y94.186718 Z-6.000000 I-1.154849 J0.478355
G03 X150.285073 Y94.665073 Z-6.000000 I-1.250000 J-0.000000
G03 X150.014107 Y95.070602 Z-6.000000 I-1.154849 J-0.478355
G03 X149.608578 Y95.341568 Z-6.000000 I-0.883883 J-0.883884
G03 X149.130223 Y95.436718 Z-6.000000 I-0.478354 J-1.154850
G03 X148.246340 Y95.070601 Z-6.000000 I0.000000 J-1.250000
G03 X147.880223 Y94.186718 Z-6.000000 I0.883884 J-0.883884
G01 X147.880223 Y94.186718 Z-6.000000
G00 Z8.000000

(End cutting path id: circle1020)


(Start cutting path id: path3484)
(Change tool to Cylindrical cutter)

G00 Z8.000000
G00 X83.605003 Y87.636040

G01 Z-3.100000 F400.0(Penetrate)
G03 X83.181177 Y81.850102 Z-3.100000 I16.211606 J-4.096009 F400.000000
G02 X79.181870 Y70.487027 Z-3.100000 I-14.078788 J-1.430209
G02 X69.343890 Y66.988811 Z-3.100000 I-8.529927 J8.405877
G03 X65.884620 Y67.174010 Z-3.100000 I-3.382717 J-30.784818
G03 X63.544990 Y65.054621 Z-3.100000 I0.005802 J-2.357478
G03 X63.604930 Y60.109762 Z-3.100000 I21.761110 J-2.209012
G01 X117.978676 Y60.314806 Z-3.100000
G03 X118.881927 Y79.094402 Z-3.100000 I-156.208764 J16.924767
G03 X114.818964 Y86.448061 Z-3.100000 I-8.875925 J-0.104787
G03 X106.004859 Y88.940409 Z-3.100000 I-8.471663 J-13.128183
G03 X83.605003 Y87.636040 Z-3.100000 I6.785283 J-309.511160
G01 X83.605003 Y87.636040 Z-3.100000
G00 Z8.000000

(End cutting path id: path3484)


(Start cutting path id: path3484)
(Change tool to Cylindrical cutter)

G00 Z8.000000
G00 X83.605003 Y87.636040

G01 Z-6.000000 F400.0(Penetrate)
G03 X83.181177 Y81.850102 Z-6.000000 I16.211606 J-4.096009 F400.000000
G02 X79.181870 Y70.487027 Z-6.000000 I-14.078788 J-1.430209
G02 X69.343890 Y66.988811 Z-6.000000 I-8.529927 J8.405877
G03 X65.884620 Y67.174010 Z-6.000000 I-3.382717 J-30.784818
G03 X63.544990 Y65.054621 Z-6.000000 I0.005802 J-2.357478
G03 X63.604930 Y60.109762 Z-6.000000 I21.761110 J-2.209012
G01 X117.978676 Y60.314806 Z-6.000000
G03 X118.881927 Y79.094402 Z-6.000000 I-156.208764 J16.924767
G03 X114.818964 Y86.448061 Z-6.000000 I-8.875925 J-0.104787
G03 X106.004859 Y88.940409 Z-6.000000 I-8.471663 J-13.128183
G03 X83.605003 Y87.636040 Z-6.000000 I6.785283 J-309.511160
G01 X83.605003 Y87.636040 Z-6.000000
G00 Z8.000000

(End cutting path id: path3484)


(Start cutting path id: path3484)
(Change tool to Cylindrical cutter)

G00 Z8.000000
G00 X83.605003 Y87.636040

G01 Z-6.000000 F400.0(Penetrate)
G03 X83.181177 Y81.850102 Z-6.000000 I16.211606 J-4.096009 F400.000000
G02 X79.181870 Y70.487027 Z-6.000000 I-14.078788 J-1.430209
G02 X69.343890 Y66.988811 Z-6.000000 I-8.529927 J8.405877
G03 X65.884620 Y67.174010 Z-6.000000 I-3.382717 J-30.784818
G03 X63.544990 Y65.054621 Z-6.000000 I0.005802 J-2.357478
G03 X63.604930 Y60.109762 Z-6.000000 I21.761110 J-2.209012
G01 X117.978676 Y60.314806 Z-6.000000
G03 X118.881927 Y79.094402 Z-6.000000 I-156.208764 J16.924767
G03 X114.818964 Y86.448061 Z-6.000000 I-8.875925 J-0.104787
G03 X106.004859 Y88.940409 Z-6.000000 I-8.471663 J-13.128183
G03 X83.605003 Y87.636040 Z-6.000000 I6.785283 J-309.511160
G01 X83.605003 Y87.636040 Z-6.000000
G00 Z8.000000

(End cutting path id: path3484)


(Start cutting path id: rect1046)
(Change tool to Cylindrical cutter)

G00 Z8.000000
G00 X74.211540 Y72.195043

G01 Z-3.100000 F400.0(Penetrate)
G01 X60.711540 Y72.195043 Z-3.100000 F400.000000
G01 X60.711540 Y71.695043 Z-3.100000
G01 X74.211540 Y71.695043 Z-3.100000
G01 X74.211540 Y72.195043 Z-3.100000
G00 Z8.000000

(End cutting path id: rect1046)


(Start cutting path id: rect1046)
(Change tool to Cylindrical cutter)

G00 Z8.000000
G00 X74.211540 Y72.195043

G01 Z-6.000000 F400.0(Penetrate)
G01 X60.711540 Y72.195043 Z-6.000000 F400.000000
G01 X60.711540 Y71.695043 Z-6.000000
G01 X74.211540 Y71.695043 Z-6.000000
G01 X74.211540 Y72.195043 Z-6.000000
G00 Z8.000000

(End cutting path id: rect1046)


(Start cutting path id: rect1046)
(Change tool to Cylindrical cutter)

G00 Z8.000000
G00 X74.211540 Y72.195043

G01 Z-6.000000 F400.0(Penetrate)
G01 X60.711540 Y72.195043 Z-6.000000 F400.000000
G01 X60.711540 Y71.695043 Z-6.000000
G01 X74.211540 Y71.695043 Z-6.000000
G01 X74.211540 Y72.195043 Z-6.000000
G00 Z8.000000

(End cutting path id: rect1046)


(Start cutting path id: circle1018)
(Change tool to Cylindrical cutter)

G00 Z8.000000
G00 X53.159570 Y93.185726

G01 Z-3.100000 F400.0(Penetrate)
G03 X53.525687 Y92.301843 Z-3.100000 I1.250000 J0.000000 F400.000000
G03 X54.409570 Y91.935726 Z-3.100000 I0.883884 J0.883884
G03 X55.293453 Y92.301843 Z-3.100000 I-0.000000 J1.250000
G03 X55.659570 Y93.185726 Z-3.100000 I-0.883884 J0.883884
G03 X55.293453 Y94.069609 Z-3.100000 I-1.250000 J-0.000000
G03 X54.409570 Y94.435726 Z-3.100000 I-0.883884 J-0.883884
G03 X53.525687 Y94.069609 Z-3.100000 I0.000000 J-1.250000
G03 X53.159570 Y93.185726 Z-3.100000 I0.883884 J-0.883884
G01 X53.159570 Y93.185726 Z-3.100000
G00 Z8.000000

(End cutting path id: circle1018)


(Start cutting path id: circle1018)
(Change tool to Cylindrical cutter)

G00 Z8.000000
G00 X53.159570 Y93.185726

G01 Z-6.000000 F400.0(Penetrate)
G03 X53.525687 Y92.301843 Z-6.000000 I1.250000 J0.000000 F400.000000
G03 X54.409570 Y91.935726 Z-6.000000 I0.883884 J0.883884
G03 X55.293453 Y92.301843 Z-6.000000 I-0.000000 J1.250000
G03 X55.659570 Y93.185726 Z-6.000000 I-0.883884 J0.883884
G03 X55.293453 Y94.069609 Z-6.000000 I-1.250000 J-0.000000
G03 X54.409570 Y94.435726 Z-6.000000 I-0.883884 J-0.883884
G03 X53.525687 Y94.069609 Z-6.000000 I0.000000 J-1.250000
G03 X53.159570 Y93.185726 Z-6.000000 I0.883884 J-0.883884
G01 X53.159570 Y93.185726 Z-6.000000
G00 Z8.000000

(End cutting path id: circle1018)


(Start cutting path id: circle1018)
(Change tool to Cylindrical cutter)

G00 Z8.000000
G00 X53.159570 Y93.185726

G01 Z-6.000000 F400.0(Penetrate)
G03 X53.525687 Y92.301843 Z-6.000000 I1.250000 J0.000000 F400.000000
G03 X54.409570 Y91.935726 Z-6.000000 I0.883884 J0.883884
G03 X55.293453 Y92.301843 Z-6.000000 I-0.000000 J1.250000
G03 X55.659570 Y93.185726 Z-6.000000 I-0.883884 J0.883884
G03 X55.293453 Y94.069609 Z-6.000000 I-1.250000 J-0.000000
G03 X54.409570 Y94.435726 Z-6.000000 I-0.883884 J-0.883884
G03 X53.525687 Y94.069609 Z-6.000000 I0.000000 J-1.250000
G03 X53.159570 Y93.185726 Z-6.000000 I0.883884 J-0.883884
G01 X53.159570 Y93.185726 Z-6.000000
G00 Z8.000000

(End cutting path id: circle1018)


(Start cutting path id: circle50321)
(Change tool to Cylindrical cutter)

G00 Z8.000000
G00 X55.328130 Y48.711620

G01 Z-3.100000 F400.0(Penetrate)
G03 X55.362384 Y48.539412 Z-3.100000 I0.450000 J-0.000000 F400.000000
G03 X55.459932 Y48.393422 Z-3.100000 I0.415746 J0.172208
G03 X55.605922 Y48.295874 Z-3.100000 I0.318198 J0.318198
G03 X55.778130 Y48.261620 Z-3.100000 I0.172208 J0.415746
G03 X55.950338 Y48.295874 Z-3.100000 I0.000000 J0.450000
G03 X56.096328 Y48.393422 Z-3.100000 I-0.172208 J0.415746
G03 X56.193876 Y48.539412 Z-3.100000 I-0.318198 J0.318198
G03 X56.228130 Y48.711620 Z-3.100000 I-0.415746 J0.172208
G03 X56.193876 Y48.883828 Z-3.100000 I-0.450000 J0.000000
G03 X56.096328 Y49.029818 Z-3.100000 I-0.415746 J-0.172208
G03 X55.950338 Y49.127366 Z-3.100000 I-0.318198 J-0.318198
G03 X55.778130 Y49.161620 Z-3.100000 I-0.172208 J-0.415746
G03 X55.605922 Y49.127366 Z-3.100000 I-0.000000 J-0.450000
G03 X55.459932 Y49.029818 Z-3.100000 I0.172208 J-0.415746
G03 X55.362384 Y48.883828 Z-3.100000 I0.318198 J-0.318198
G03 X55.328130 Y48.711620 Z-3.100000 I0.415746 J-0.172208
G01 X55.328130 Y48.711620 Z-3.100000
G00 Z8.000000

(End cutting path id: circle50321)


(Start cutting path id: circle50321)
(Change tool to Cylindrical cutter)

G00 Z8.000000
G00 X55.328130 Y48.711620

G01 Z-6.000000 F400.0(Penetrate)
G03 X55.362384 Y48.539412 Z-6.000000 I0.450000 J-0.000000 F400.000000
G03 X55.459932 Y48.393422 Z-6.000000 I0.415746 J0.172208
G03 X55.605922 Y48.295874 Z-6.000000 I0.318198 J0.318198
G03 X55.778130 Y48.261620 Z-6.000000 I0.172208 J0.415746
G03 X55.950338 Y48.295874 Z-6.000000 I0.000000 J0.450000
G03 X56.096328 Y48.393422 Z-6.000000 I-0.172208 J0.415746
G03 X56.193876 Y48.539412 Z-6.000000 I-0.318198 J0.318198
G03 X56.228130 Y48.711620 Z-6.000000 I-0.415746 J0.172208
G03 X56.193876 Y48.883828 Z-6.000000 I-0.450000 J0.000000
G03 X56.096328 Y49.029818 Z-6.000000 I-0.415746 J-0.172208
G03 X55.950338 Y49.127366 Z-6.000000 I-0.318198 J-0.318198
G03 X55.778130 Y49.161620 Z-6.000000 I-0.172208 J-0.415746
G03 X55.605922 Y49.127366 Z-6.000000 I-0.000000 J-0.450000
G03 X55.459932 Y49.029818 Z-6.000000 I0.172208 J-0.415746
G03 X55.362384 Y48.883828 Z-6.000000 I0.318198 J-0.318198
G03 X55.328130 Y48.711620 Z-6.000000 I0.415746 J-0.172208
G01 X55.328130 Y48.711620 Z-6.000000
G00 Z8.000000

(End cutting path id: circle50321)


(Start cutting path id: circle50321)
(Change tool to Cylindrical cutter)

G00 Z8.000000
G00 X55.328130 Y48.711620

G01 Z-6.000000 F400.0(Penetrate)
G03 X55.362384 Y48.539412 Z-6.000000 I0.450000 J-0.000000 F400.000000
G03 X55.459932 Y48.393422 Z-6.000000 I0.415746 J0.172208
G03 X55.605922 Y48.295874 Z-6.000000 I0.318198 J0.318198
G03 X55.778130 Y48.261620 Z-6.000000 I0.172208 J0.415746
G03 X55.950338 Y48.295874 Z-6.000000 I0.000000 J0.450000
G03 X56.096328 Y48.393422 Z-6.000000 I-0.172208 J0.415746
G03 X56.193876 Y48.539412 Z-6.000000 I-0.318198 J0.318198
G03 X56.228130 Y48.711620 Z-6.000000 I-0.415746 J0.172208
G03 X56.193876 Y48.883828 Z-6.000000 I-0.450000 J0.000000
G03 X56.096328 Y49.029818 Z-6.000000 I-0.415746 J-0.172208
G03 X55.950338 Y49.127366 Z-6.000000 I-0.318198 J-0.318198
G03 X55.778130 Y49.161620 Z-6.000000 I-0.172208 J-0.415746
G03 X55.605922 Y49.127366 Z-6.000000 I-0.000000 J-0.450000
G03 X55.459932 Y49.029818 Z-6.000000 I0.172208 J-0.415746
G03 X55.362384 Y48.883828 Z-6.000000 I0.318198 J-0.318198
G03 X55.328130 Y48.711620 Z-6.000000 I0.415746 J-0.172208
G01 X55.328130 Y48.711620 Z-6.000000
G00 Z8.000000

(End cutting path id: circle50321)


(Start cutting path id: path50319)
(Change tool to Cylindrical cutter)

G00 Z8.000000
G00 X55.328130 Y38.711620

G01 Z-3.100000 F400.0(Penetrate)
G03 X55.362384 Y38.539412 Z-3.100000 I0.450000 J-0.000000 F400.000000
G03 X55.459932 Y38.393422 Z-3.100000 I0.415746 J0.172208
G03 X55.605922 Y38.295874 Z-3.100000 I0.318198 J0.318198
G03 X55.778130 Y38.261620 Z-3.100000 I0.172208 J0.415746
G03 X55.950338 Y38.295874 Z-3.100000 I0.000000 J0.450000
G03 X56.096328 Y38.393422 Z-3.100000 I-0.172208 J0.415746
G03 X56.193876 Y38.539412 Z-3.100000 I-0.318198 J0.318198
G03 X56.228130 Y38.711620 Z-3.100000 I-0.415746 J0.172208
G03 X56.193876 Y38.883828 Z-3.100000 I-0.450000 J0.000000
G03 X56.096328 Y39.029818 Z-3.100000 I-0.415746 J-0.172208
G03 X55.950338 Y39.127366 Z-3.100000 I-0.318198 J-0.318198
G03 X55.778130 Y39.161620 Z-3.100000 I-0.172208 J-0.415746
G03 X55.605922 Y39.127366 Z-3.100000 I-0.000000 J-0.450000
G03 X55.459932 Y39.029818 Z-3.100000 I0.172208 J-0.415746
G03 X55.362384 Y38.883828 Z-3.100000 I0.318198 J-0.318198
G03 X55.328130 Y38.711620 Z-3.100000 I0.415746 J-0.172208
G01 X55.328130 Y38.711620 Z-3.100000
G00 Z8.000000

(End cutting path id: path50319)


(Start cutting path id: path50319)
(Change tool to Cylindrical cutter)

G00 Z8.000000
G00 X55.328130 Y38.711620

G01 Z-6.000000 F400.0(Penetrate)
G03 X55.362384 Y38.539412 Z-6.000000 I0.450000 J-0.000000 F400.000000
G03 X55.459932 Y38.393422 Z-6.000000 I0.415746 J0.172208
G03 X55.605922 Y38.295874 Z-6.000000 I0.318198 J0.318198
G03 X55.778130 Y38.261620 Z-6.000000 I0.172208 J0.415746
G03 X55.950338 Y38.295874 Z-6.000000 I0.000000 J0.450000
G03 X56.096328 Y38.393422 Z-6.000000 I-0.172208 J0.415746
G03 X56.193876 Y38.539412 Z-6.000000 I-0.318198 J0.318198
G03 X56.228130 Y38.711620 Z-6.000000 I-0.415746 J0.172208
G03 X56.193876 Y38.883828 Z-6.000000 I-0.450000 J0.000000
G03 X56.096328 Y39.029818 Z-6.000000 I-0.415746 J-0.172208
G03 X55.950338 Y39.127366 Z-6.000000 I-0.318198 J-0.318198
G03 X55.778130 Y39.161620 Z-6.000000 I-0.172208 J-0.415746
G03 X55.605922 Y39.127366 Z-6.000000 I-0.000000 J-0.450000
G03 X55.459932 Y39.029818 Z-6.000000 I0.172208 J-0.415746
G03 X55.362384 Y38.883828 Z-6.000000 I0.318198 J-0.318198
G03 X55.328130 Y38.711620 Z-6.000000 I0.415746 J-0.172208
G01 X55.328130 Y38.711620 Z-6.000000
G00 Z8.000000

(End cutting path id: path50319)


(Start cutting path id: path50319)
(Change tool to Cylindrical cutter)

G00 Z8.000000
G00 X55.328130 Y38.711620

G01 Z-6.000000 F400.0(Penetrate)
G03 X55.362384 Y38.539412 Z-6.000000 I0.450000 J-0.000000 F400.000000
G03 X55.459932 Y38.393422 Z-6.000000 I0.415746 J0.172208
G03 X55.605922 Y38.295874 Z-6.000000 I0.318198 J0.318198
G03 X55.778130 Y38.261620 Z-6.000000 I0.172208 J0.415746
G03 X55.950338 Y38.295874 Z-6.000000 I0.000000 J0.450000
G03 X56.096328 Y38.393422 Z-6.000000 I-0.172208 J0.415746
G03 X56.193876 Y38.539412 Z-6.000000 I-0.318198 J0.318198
G03 X56.228130 Y38.711620 Z-6.000000 I-0.415746 J0.172208
G03 X56.193876 Y38.883828 Z-6.000000 I-0.450000 J0.000000
G03 X56.096328 Y39.029818 Z-6.000000 I-0.415746 J-0.172208
G03 X55.950338 Y39.127366 Z-6.000000 I-0.318198 J-0.318198
G03 X55.778130 Y39.161620 Z-6.000000 I-0.172208 J-0.415746
G03 X55.605922 Y39.127366 Z-6.000000 I-0.000000 J-0.450000
G03 X55.459932 Y39.029818 Z-6.000000 I0.172208 J-0.415746
G03 X55.362384 Y38.883828 Z-6.000000 I0.318198 J-0.318198
G03 X55.328130 Y38.711620 Z-6.000000 I0.415746 J-0.172208
G01 X55.328130 Y38.711620 Z-6.000000
G00 Z8.000000

(End cutting path id: path50319)


(Start cutting path id: rect896)
(Change tool to Cylindrical cutter)

G00 Z8.000000
G00 X54.299220 Y10.974230

G01 Z-3.100000 F400.0(Penetrate)
G01 X54.299220 Y6.149680 Z-3.100000 F400.000000
G01 X68.541040 Y6.149680 Z-3.100000
G01 X68.541040 Y10.974230 Z-3.100000
G01 X54.299220 Y10.974230 Z-3.100000
G00 Z8.000000

(End cutting path id: rect896)


(Start cutting path id: rect896)
(Change tool to Cylindrical cutter)

G00 Z8.000000
G00 X54.299220 Y10.974230

G01 Z-6.000000 F400.0(Penetrate)
G01 X54.299220 Y6.149680 Z-6.000000 F400.000000
G01 X68.541040 Y6.149680 Z-6.000000
G01 X68.541040 Y10.974230 Z-6.000000
G01 X54.299220 Y10.974230 Z-6.000000
G00 Z8.000000

(End cutting path id: rect896)


(Start cutting path id: rect896)
(Change tool to Cylindrical cutter)

G00 Z8.000000
G00 X54.299220 Y10.974230

G01 Z-6.000000 F400.0(Penetrate)
G01 X54.299220 Y6.149680 Z-6.000000 F400.000000
G01 X68.541040 Y6.149680 Z-6.000000
G01 X68.541040 Y10.974230 Z-6.000000
G01 X54.299220 Y10.974230 Z-6.000000
G00 Z8.000000

(End cutting path id: rect896)


(Start cutting path id: circle7917)
(Change tool to Cylindrical cutter)

G00 Z8.000000
G00 X36.782355 Y10.572850

G01 Z-3.100000 F400.0(Penetrate)
G03 X37.148472 Y9.688967 Z-3.100000 I1.250000 J0.000000 F400.000000
G03 X38.032355 Y9.322850 Z-3.100000 I0.883884 J0.883884
G03 X38.916238 Y9.688967 Z-3.100000 I-0.000000 J1.250000
G03 X39.282355 Y10.572850 Z-3.100000 I-0.883884 J0.883884
G03 X38.916238 Y11.456733 Z-3.100000 I-1.250000 J-0.000000
G03 X38.032355 Y11.822850 Z-3.100000 I-0.883884 J-0.883884
G03 X37.148472 Y11.456733 Z-3.100000 I0.000000 J-1.250000
G03 X36.782355 Y10.572850 Z-3.100000 I0.883884 J-0.883884
G01 X36.782355 Y10.572850 Z-3.100000
G00 Z8.000000

(End cutting path id: circle7917)


(Start cutting path id: circle7917)
(Change tool to Cylindrical cutter)

G00 Z8.000000
G00 X36.782355 Y10.572850

G01 Z-6.000000 F400.0(Penetrate)
G03 X37.148472 Y9.688967 Z-6.000000 I1.250000 J0.000000 F400.000000
G03 X38.032355 Y9.322850 Z-6.000000 I0.883884 J0.883884
G03 X38.916238 Y9.688967 Z-6.000000 I-0.000000 J1.250000
G03 X39.282355 Y10.572850 Z-6.000000 I-0.883884 J0.883884
G03 X38.916238 Y11.456733 Z-6.000000 I-1.250000 J-0.000000
G03 X38.032355 Y11.822850 Z-6.000000 I-0.883884 J-0.883884
G03 X37.148472 Y11.456733 Z-6.000000 I0.000000 J-1.250000
G03 X36.782355 Y10.572850 Z-6.000000 I0.883884 J-0.883884
G01 X36.782355 Y10.572850 Z-6.000000
G00 Z8.000000

(End cutting path id: circle7917)


(Start cutting path id: circle7917)
(Change tool to Cylindrical cutter)

G00 Z8.000000
G00 X36.782355 Y10.572850

G01 Z-6.000000 F400.0(Penetrate)
G03 X37.148472 Y9.688967 Z-6.000000 I1.250000 J0.000000 F400.000000
G03 X38.032355 Y9.322850 Z-6.000000 I0.883884 J0.883884
G03 X38.916238 Y9.688967 Z-6.000000 I-0.000000 J1.250000
G03 X39.282355 Y10.572850 Z-6.000000 I-0.883884 J0.883884
G03 X38.916238 Y11.456733 Z-6.000000 I-1.250000 J-0.000000
G03 X38.032355 Y11.822850 Z-6.000000 I-0.883884 J-0.883884
G03 X37.148472 Y11.456733 Z-6.000000 I0.000000 J-1.250000
G03 X36.782355 Y10.572850 Z-6.000000 I0.883884 J-0.883884
G01 X36.782355 Y10.572850 Z-6.000000
G00 Z8.000000

(End cutting path id: circle7917)


(Start cutting path id: circle869-9)
(Change tool to Cylindrical cutter)

G00 Z8.000000
G00 X30.451885 Y10.572850

G01 Z-3.100000 F400.0(Penetrate)
G03 X30.818002 Y9.688967 Z-3.100000 I1.250000 J0.000000 F400.000000
G03 X31.701885 Y9.322850 Z-3.100000 I0.883884 J0.883884
G03 X32.585768 Y9.688967 Z-3.100000 I-0.000000 J1.250000
G03 X32.951885 Y10.572850 Z-3.100000 I-0.883884 J0.883884
G03 X32.585768 Y11.456733 Z-3.100000 I-1.250000 J-0.000000
G03 X31.701885 Y11.822850 Z-3.100000 I-0.883884 J-0.883884
G03 X30.818002 Y11.456733 Z-3.100000 I0.000000 J-1.250000
G03 X30.451885 Y10.572850 Z-3.100000 I0.883884 J-0.883884
G01 X30.451885 Y10.572850 Z-3.100000
G00 Z8.000000

(End cutting path id: circle869-9)


(Start cutting path id: circle869-9)
(Change tool to Cylindrical cutter)

G00 Z8.000000
G00 X30.451885 Y10.572850

G01 Z-6.000000 F400.0(Penetrate)
G03 X30.818002 Y9.688967 Z-6.000000 I1.250000 J0.000000 F400.000000
G03 X31.701885 Y9.322850 Z-6.000000 I0.883884 J0.883884
G03 X32.585768 Y9.688967 Z-6.000000 I-0.000000 J1.250000
G03 X32.951885 Y10.572850 Z-6.000000 I-0.883884 J0.883884
G03 X32.585768 Y11.456733 Z-6.000000 I-1.250000 J-0.000000
G03 X31.701885 Y11.822850 Z-6.000000 I-0.883884 J-0.883884
G03 X30.818002 Y11.456733 Z-6.000000 I0.000000 J-1.250000
G03 X30.451885 Y10.572850 Z-6.000000 I0.883884 J-0.883884
G01 X30.451885 Y10.572850 Z-6.000000
G00 Z8.000000

(End cutting path id: circle869-9)


(Start cutting path id: circle869-9)
(Change tool to Cylindrical cutter)

G00 Z8.000000
G00 X30.451885 Y10.572850

G01 Z-6.000000 F400.0(Penetrate)
G03 X30.818002 Y9.688967 Z-6.000000 I1.250000 J0.000000 F400.000000
G03 X31.701885 Y9.322850 Z-6.000000 I0.883884 J0.883884
G03 X32.585768 Y9.688967 Z-6.000000 I-0.000000 J1.250000
G03 X32.951885 Y10.572850 Z-6.000000 I-0.883884 J0.883884
G03 X32.585768 Y11.456733 Z-6.000000 I-1.250000 J-0.000000
G03 X31.701885 Y11.822850 Z-6.000000 I-0.883884 J-0.883884
G03 X30.818002 Y11.456733 Z-6.000000 I0.000000 J-1.250000
G03 X30.451885 Y10.572850 Z-6.000000 I0.883884 J-0.883884
G01 X30.451885 Y10.572850 Z-6.000000
G00 Z8.000000

(End cutting path id: circle869-9)


(Footer)
M5
G00 X0.0000 Y0.0000
M2
(Using default footer. To add your own footer create file "footer" in the output dir.)
(end)
%